x = 734, y = 319, rule = W210
313bo$312bobo$311bo3bo$310bobobobo$309bo7bo36bo$308bobo5bobo34bobo38bo
$307bo3bo3bo3bo32bo3bo36bobo$306bobobobobobobobo30bobobobo34bo3bo$305b
o15bo28bo7bo32bobobobo$304bobo13bobo26bobo5bobo30bo7bo$303bo3bo11bo3bo
24bo3bo3bo3bo28bobo5bobo$302bobobobo9bobobobo22bobobobobobobobo26bo3bo
3bo3bo$301bo7bo7bo7bo20bo15bo24bobobobobobobobo$300bobo5bobo5bobo5bobo
18bobo13bobo22bo15bo$299bo3bo3bo3bo3bo3bo3bo3bo16bo3bo11bo3bo20bobo13b
obo$298bobobobobobobobobobobobobobobobo14bobobobo9bobobobo18bo3bo11bo
3bo$297bo31bo12bo7bo7bo7bo16bobobobo9bobobobo$296bobo29bobo10bobo5bobo
5bobo5bobo14bo7bo7bo7bo$295bo3bo27bo3bo8bo3bo3bo3bo3bo3bo3bo3bo12bobo
5bobo5bobo5bobo$294bobobobo25bobobobo6bobobobobobobobobobobobobobobobo
10bo3bo3bo3bo3bo3bo3bo3bo$293bo7bo23bo7bo4bo31bo8bobobobobobobobobobob
obobobobobo$292bobo5bobo21bobo5bobo2bobo29bobo6bo31bo$291bo3bo3bo3bo
19bo3bo3bo3b2o3bo27bo3bo4bobo29bobo$290bobobobobobobobo17bobobobobobob
4obobo25bobobobo2bo3bo27bo3bo$289bo15bo15bo12b4o4bo23bo7b2obobobo25bob
obobo$288bobo13bobo13bobo10bob4o2bobo21bobo5b3o6bo23bo7bo$287bo3bo11bo
3bo11bo3bo8bo3b5o3bo19bo3bo3b5o4bobo21bobo5bobo$286bobobobo9bobobobo9b
obobobo6bobobob5obobo17bobobobob7o2bo3bo19bo3bo3bo3bo$285bo7bo7bo7bo7b
o7bo4bo7b4o4bo15bo8b9obobobo17bobobobobobobobo$284bobo5bobo5bobo5bobo
5bobo5bobo2bobo5bob4o2bobo13bobo6bob8o6bo15bo15bo$283bo3bo3bo3bo3bo3bo
3bo3bo3bo3bo3bo3b2o3bo3bo3b5o3bo11bo3bo4bobob8o4bobo13bobo13bobo$282bo
bobobobobobobobobobobobobobobobobobobobobob4obobobobobob5obobo9bobobob
o2bo3bob8o2bo3bo11bo3bo11bo3bo$281bo44b4o4bo7b4o4bo7bo7b2obobobob9obob
obo9bobobobo9bobobobo$280bobo42bob4o2bobo5bob4o2bobo5bobo5b3o6bob8o6bo
7bo7bo7bo7bo$279bo3bo40bo3b5o3bo3bo3b5o3bo3bo3bo3b5o4bobob8o4bobo5bobo
5bobo5bobo5bobo$278bobobobo38bobobob5obobobobobob5obobobobobobob7o2bo
3bob8o2bo3bo3bo3bo3bo3bo3bo3bo3bo3bo$277bo7bo36bo7b4o12b4o13b9obobobob
9obobobobobobobobobobobobobobobobobobobo$276bobo5bobo34bobo5bob4o10bob
4o11bob8o8b8o38bo$275bo3bo3bo3bo32bo3bo3bo3b4o8bo3b4o9bobob8o6bob8o36b
obo$274bobobobobobobobo30bobobobobobobob4o6bobobob4o7bo3bob8o4bo3b8o
34bo3bo$273bo15bo28bo7bo7b4o4bo7b4o5bobobobob8o2bobobob8o32bobobobo$
272bobo13bobo26bobo5bobo5bob4o2bobo5bob4o3bo7bob9o7b8o30bo7bo$271bo3bo
11bo3bo24bo3bo3bo3bo3bo3b5o3bo3bo3b4obobo5bobob9o5bob8o28bobo5bobo$
270bobobobo9bobobobo22bobobobobobobobobobobob5obobobobobob4o3bo3bo3bob
9o3bo3b8o26bo3bo3bo3bo$269bo7bo7bo7bo20bo15bo7b4o12b4obobobobobobob9ob
obobob8o24bobobobobobobobo$268bobo5bobo5bobo5bobo18bobo13bobo5bob4o10b
5o12bob8o8b8o22bo15bo$267bo3bo3bo3bo3bo3bo3bo3bo16bo3bo11bo3bo3bo3b4o
8b7o10bobob8o6bob8o20bobo13bobo$266bobobobobobobobobobobobobobobobo14b
obobobo9bobobobobobobob4o6b9o8bo3bob8o4bo3b8o18bo3bo11bo3bo$265bo31bo
12bo7bo7bo7bo7b4o4b11o6bobobobob8o2bobobob8o16bobobobo9bobobobo$264bob
o29bobo10bobo5bobo5bobo5bobo5bob4o2b13o4bo7bob9o7b8o14bo7bo7bo7bo$263b
o3bo27bo3bo8bo3bo3bo3bo3bo3bo3bo3bo3bo3b19o2bobo5bobob9o5bob8o12bobo5b
obo5bobo5bobo$262bobobobo25bobobobo6bobobobobobobobobobobobobobobobobo
bobob20o3bo3bo3bob9o3bo3b8o10bo3bo3bo3bo3bo3bo3bo3bo$261bo7bo23bo7bo4b
o31bo7b20obobobobobobob9obobobob8o8bobobobobobobobobobobobobobobobo$
260bobo5bobo21bobo5bobo2bobo29bobo5b21o12bob8o8b8o6bo31bo$259bo3bo3bo
3bo19bo3bo3bo3b2o3bo27bo3bo3b23o10bobob8o6bob8o4bobo29bobo$258bobobobo
bobobobo17bobobobobobob4obobo25bobobobob25o8bo3bob8o4bo3b8o2bo3bo27bo
3bo$257bo15bo15bo12b4o4bo23bo7b27o6bobobobob8o2bobobob9obobobo25bobobo
bo$256bobo13bobo13bobo10bob4o2bobo21bobo5b29o4bo7bob9o7b8o6bo23bo7bo$
255bo3bo11bo3bo11bo3bo8bo3b5o3bo19bo3bo3b31o2bobo5bobob9o5bob8o4bobo
21bobo5bobo$254bobobobo9bobobobo9bobobobo6bobobob5obobo17bobobobob34o
3bo3bo3bob9o3bo3b8o2bo3bo19bo3bo3bo3bo$253bo7bo7bo7bo7bo7bo4bo7b4o4bo
15bo8b35obobobobobobob9obobobob9obobobo17bobobobobobobobo$252bobo5bobo
5bobo5bobo5bobo5bobo2bobo5bob4o2bobo13bobo6bob34o12bob8o6bob8o6bo15bo
15bo$251bo3bo3bo3bo3bo3bo3bo3bo3bo3bo3bo3b2o3bo3bo3b5o3bo11bo3bo4bobob
34o10bobob8o4bobob8o4bobo13bobo13bobo$250bobobobobobobobobobobobobobob
obobobobobobobob4obobobobobob5obobo9bobobobo2bo3bob34o8bo3bob8o2bo3bob
8o2bo3bo11bo3bo11bo3bo$249bo44b4o4bo7b4o4bo7bo7b2obobobob34o6bobobobob
9obobobob9obobobo9bobobobo9bobobobo$248bobo42bob4o2bobo5bob4o2bobo5bob
o5b3o6bob34o4bo7bob8o6bob8o6bo7bo7bo7bo7bo$247bo3bo40bo3b5o3bo3bo3b5o
3bo3bo3bo3b5o4bobob34o2bobo5bobob8o4bobob8o4bobo5bobo5bobo5bobo5bobo$
246bobobobo38bobobob5obobobobobob5obobobobobobob7o2bo3bob35o3bo3bo3bob
8o2bo3bob8o2bo3bo3bo3bo3bo3bo3bo3bo3bo3bo$245bo7bo36bo7b4o12b4o13b9obo
bobob35obobobobobobob9obobobob9obobobobobobobobobobobobobobobobobobobo
$244bobo5bobo34bobo5bob4o10bob4o11bob8o8b34o14b8o8b8o38bo$243bo3bo3bo
3bo32bo3bo3bo3b4o8bo3b4o9bobob8o6bob34o12bob8o6bob8o36bobo$242bobobobo
bobobobo30bobobobobobobob4o6bobobob4o7bo3bob8o4bo3b34o10bo3b8o4bo3b8o
34bo3bo$241bo15bo28bo7bo7b4o4bo7b4o5bobobobob8o2bobobob34o8bobobob8o2b
obobob8o32bobobobo$240bobo13bobo26bobo5bobo5bob4o2bobo5bob4o3bo7bob9o
7b34o6bo7b9o7b8o30bo7bo$239bo3bo11bo3bo24bo3bo3bo3bo3bo3b5o3bo3bo3b4ob
obo5bobob9o5bob34o4bobo5bob9o5bob8o28bobo5bobo$238bobobobo9bobobobo22b
obobobobobobobobobobob5obobobobobob4o3bo3bo3bob9o3bo3b34o2bo3bo3bo3b9o
3bo3b8o26bo3bo3bo3bo$237bo7bo7bo7bo20bo15bo7b4o12b4obobobobobobob9obob
obob35obobobobobobob9obobobob8o24bobobobobobobobo$236bobo5bobo5bobo5bo
bo18bobo13bobo5bob4o10b5o12bob8o8b34o14b8o8b8o22bo15bo$235bo3bo3bo3bo
3bo3bo3bo3bo16bo3bo11bo3bo3bo3b4o8b7o10bobob8o6bob34o12bob8o6bob8o20bo
bo13bobo$234bobobobobobobobobobobobobobobobo14bobobobo9bobobobobobobob
4o6b9o8bo3bob8o4bo3b34o10bo3b8o4bo3b8o18bo3bo11bo3bo$233bo31bo12bo7bo
7bo7bo7b4o4b11o6bobobobob8o2bobobob34o8bobobob8o2bobobob8o16bobobobo9b
obobobo$232bobo29bobo10bobo5bobo5bobo5bobo5bob4o2b13o4bo7bob9o7b34o6bo
7b9o7b8o14bo7bo7bo7bo$231bo3bo27bo3bo8bo3bo3bo3bo3bo3bo3bo3bo3bo3b19o
2bobo5bobob9o5bob34o4bobo5bob9o5bob8o12bobo5bobo5bobo5bobo$230bobobobo
25bobobobo6bobobobobobobobobobobobobobobobobobobob20o3bo3bo3bob9o3bo3b
34o2bo3bo3bo3b9o3bo3b8o10bo3bo3bo3bo3bo3bo3bo3bo$229bo7bo23bo7bo4bo31b
o7b20obobobobobobob9obobobob35obobobobobobob9obobobob8o8bobobobobobobo
bobobobobobobobobo$228bobo5bobo21bobo5bobo2bobo29bobo5b21o12bob8o8b34o
14b8o8b8o6bo31bo$227bo3bo3bo3bo19bo3bo3bo3b2o3bo27bo3bo3b23o10bobob8o
6bob34o12bob8o6bob8o4bobo29bobo$226bobobobobobobobo17bobobobobobob4obo
bo25bobobobob25o8bo3bob8o4bo3b34o10bo3b8o4bo3b8o2bo3bo27bo3bo$225bo15b
o15bo12b4o4bo23bo7b27o6bobobobob8o2bobobob34o8bobobob8o2bobobob9obobob
o25bobobobo$224bobo13bobo13bobo10bob4o2bobo21bobo5b29o4bo7bob9o7b34o6b
o7b9o7b8o6bo23bo7bo$223bo3bo11bo3bo11bo3bo8bo3b5o3bo19bo3bo3b31o2bobo
5bobob9o5bob34o4bobo5bob9o5bob8o4bobo21bobo5bobo$222bobobobo9bobobobo
9bobobobo6bobobob5obobo17bobobobob34o3bo3bo3bob9o3bo3b34o2bo3bo3bo3b9o
3bo3b8o2bo3bo19bo3bo3bo3bo$221bo7bo7bo7bo7bo7bo4bo7b4o4bo15bo8b35obobo
bobobobob9obobobob35obobobobobobob9obobobob9obobobo17bobobobobobobobo$
220bobo5bobo5bobo5bobo5bobo5bobo2bobo5bob4o2bobo13bobo6bob34o12bob8o8b
34o14b8o6bob8o6bo15bo15bo$219bo3bo3bo3bo3bo3bo3bo3bo3bo3bo3bo3b2o3bo3b
o3b5o3bo11bo3bo4bobob34o10bobob8o6bob34o12bob8o4bobob8o4bobo13bobo13bo
bo$218bobobobobobobobobobobobobobobobobobobobobobob4obobobobobob5obobo
9bobobobo2bo3bob34o8bo3bob8o4bo3b34o10bo3b8o2bo3bob8o2bo3bo11bo3bo11bo
3bo$217bo44b4o4bo7b4o4bo7bo7b2obobobob34o6bobobobob8o2bobobob34o8bobob
ob9obobobob9obobobo9bobobobo9bobobobo$216bobo42bob4o2bobo5bob4o2bobo5b
obo5b3o6bob34o4bo7bob9o7b34o6bo7b8o6bob8o6bo7bo7bo7bo7bo$215bo3bo40bo
3b5o3bo3bo3b5o3bo3bo3bo3b5o4bobob34o2bobo5bobob9o5bob34o4bobo5bob8o4bo
bob8o4bobo5bobo5bobo5bobo5bobo$214bobobobo38bobobob5obobobobobob5obobo
bobobobob7o2bo3bob35o3bo3bo3bob9o3bo3b34o2bo3bo3bo3b8o2bo3bob8o2bo3bo
3bo3bo3bo3bo3bo3bo3bo3bo$213bo7bo36bo7b4o12b4o13b9obobobob35obobobobob
obob9obobobob35obobobobobobob9obobobob9obobobobobobobobobobobobobobobo
bobobobo$212bobo5bobo34bobo5bob4o10bob4o11bob8o8b34o12bob8o8b34o12bob
8o8b8o38bo$211bo3bo3bo3bo32bo3bo3bo3b4o8bo3b4o9bobob8o6bob34o10bobob8o
6bob34o10bobob8o6bob8o36bobo$210bobobobobobobobo30bobobobobobobob4o6bo
bobob4o7bo3bob8o4bo3b34o8bo3bob8o4bo3b34o8bo3bob8o4bo3b8o34bo3bo$209bo
15bo28bo7bo7b4o4bo7b4o5bobobobob8o2bobobob34o6bobobobob8o2bobobob34o6b
obobobob8o2bobobob8o32bobobobo$208bobo13bobo26bobo5bobo5bob4o2bobo5bob
4o3bo7bob9o7b34o4bo7bob9o7b34o4bo7bob9o7b8o30bo7bo$207bo3bo11bo3bo24bo
3bo3bo3bo3bo3b5o3bo3bo3b4obobo5bobob9o5bob34o2bobo5bobob9o5bob34o2bobo
5bobob9o5bob8o28bobo5bobo$206bobobobo9bobobobo22bobobobobobobobobobobo
b5obobobobobob4o3bo3bo3bob9o3bo3b35o3bo3bo3bob9o3bo3b35o3bo3bo3bob9o3b
o3b8o26bo3bo3bo3bo$205bo7bo7bo7bo20bo15bo7b4o12b4obobobobobobob9obobob
ob35obobobobobobob9obobobob35obobobobobobob9obobobob8o24bobobobobobobo
bo$204bobo5bobo5bobo5bobo18bobo13bobo5bob4o10b5o12bob8o8b34o12bob8o8b
34o12bob8o8b8o22bo15bo$203bo3bo3bo3bo3bo3bo3bo3bo16bo3bo11bo3bo3bo3b4o
8b7o10bobob8o6bob34o10bobob8o6bob34o10bobob8o6bob8o20bobo13bobo$202bob
obobobobobobobobobobobobobobo14bobobobo9bobobobobobobob4o6b9o8bo3bob8o
4bo3b34o8bo3bob8o4bo3b34o8bo3bob8o4bo3b8o18bo3bo11bo3bo$201bo31bo12bo
7bo7bo7bo7b4o4b11o6bobobobob8o2bobobob34o6bobobobob8o2bobobob34o6bobob
obob8o2bobobob8o16bobobobo9bobobobo$200bobo29bobo10bobo5bobo5bobo5bobo
5bob4o2b13o4bo7bob9o7b34o4bo7bob9o7b34o4bo7bob9o7b8o14bo7bo7bo7bo$199b
o3bo27bo3bo8bo3bo3bo3bo3bo3bo3bo3bo3bo3b19o2bobo5bobob9o5bob34o2bobo5b
obob9o5bob34o2bobo5bobob9o5bob8o12bobo5bobo5bobo5bobo$198bobobobo25bob
obobo6bobobobobobobobobobobobobobobobobobobob20o3bo3bo3bob9o3bo3b35o3b
o3bo3bob9o3bo3b35o3bo3bo3bob9o3bo3b8o10bo3bo3bo3bo3bo3bo3bo3bo$197bo7b
o23bo7bo4bo31bo7b20obobobobobobob9obobobob35obobobobobobob9obobobob35o
bobobobobobob9obobobob8o8bobobobobobobobobobobobobobobobo$196bobo5bobo
21bobo5bobo2bobo29bobo5b21o12bob8o8b34o12bob8o8b34o12bob8o8b8o6bo31bo$
195bo3bo3bo3bo19bo3bo3bo3b2o3bo27bo3bo3b23o10bobob8o6bob34o10bobob8o6b
ob34o10bobob8o6bob8o4bobo29bobo$194bobobobobobobobo17bobobobobobob4obo
bo25bobobobob25o8bo3bob8o4bo3b34o8bo3bob8o4bo3b34o8bo3bob8o4bo3b8o2bo
3bo27bo3bo$193bo15bo15bo12b4o4bo23bo7b27o6bobobobob8o2bobobob34o6bobob
obob8o2bobobob34o6bobobobob8o2bobobob9obobobo25bobobobo$192bobo13bobo
13bobo10bob4o2bobo21bobo5b29o4bo7bob9o7b34o4bo7bob9o7b34o4bo7bob9o7b8o
6bo23bo7bo$191bo3bo11bo3bo11bo3bo8bo3b5o3bo19bo3bo3b31o2bobo5bobob9o5b
ob34o2bobo5bobob9o5bob34o2bobo5bobob9o5bob8o4bobo21bobo5bobo$190bobobo
bo9bobobobo9bobobobo6bobobob5obobo17bobobobob34o3bo3bo3bob9o3bo3b35o3b
o3bo3bob9o3bo3b35o3bo3bo3bob9o3bo3b8o2bo3bo19bo3bo3bo3bo$189bo7bo7bo7b
o7bo7bo4bo7b4o4bo15bo8b35obobobobobobob9obobobob35obobobobobobob9obobo
bob35obobobobobobob9obobobob9obobobo17bobobobobobobobo$188bobo5bobo5bo
bo5bobo5bobo5bobo2bobo5bob4o2bobo13bobo6bob34o12bob8o6bob34o12bob8o6bo
b34o12bob8o6bob8o6bo15bo15bo$187bo3bo3bo3bo3bo3bo3bo3bo3bo3bo3bo3b2o3b
o3bo3b5o3bo11bo3bo4bobob34o10bobob8o4bobob34o10bobob8o4bobob34o10bobob
8o4bobob8o4bobo13bobo13bobo$186bobobobobobobobobobobobobobobobobobobob
obobob4obobobobobob5obobo9bobobobo2bo3bob34o8bo3bob8o2bo3bob34o8bo3bob
8o2bo3bob34o8bo3bob8o2bo3bob8o2bo3bo11bo3bo11bo3bo$185bo44b4o4bo7b4o4b
o7bo7b2obobobob34o6bobobobob9obobobob34o6bobobobob9obobobob34o6bobobob
ob9obobobob9obobobo9bobobobo9bobobobo$184bobo42bob4o2bobo5bob4o2bobo5b
obo5b3o6bob34o4bo7bob8o6bob34o4bo7bob8o6bob34o4bo7bob8o6bob8o6bo7bo7bo
7bo7bo$183bo3bo40bo3b5o3bo3bo3b5o3bo3bo3bo3b5o4bobob34o2bobo5bobob8o4b
obob34o2bobo5bobob8o4bobob34o2bobo5bobob8o4bobob8o4bobo5bobo5bobo5bobo
5bobo$182bobobobo38bobobob5obobobobobob5obobobobobobob7o2bo3bob35o3bo
3bo3bob8o2bo3bob35o3bo3bo3bob8o2bo3bob35o3bo3bo3bob8o2bo3bob8o2bo3bo3b
o3bo3bo3bo3bo3bo3bo3bo$181bo7bo36bo7b4o12b4o13b9obobobob35obobobobobob
ob9obobobob35obobobobobobob9obobobob35obobobobobobob9obobobob9obobobob
obobobobobobobobobobobobobobobo$180bobo5bobo34bobo5bob4o10bob4o11bob8o
8b34o14b8o8b34o14b8o8b34o14b8o8b8o38bo$179bo3bo3bo3bo32bo3bo3bo3b4o8bo
3b4o9bobob8o6bob34o12bob8o6bob34o12bob8o6bob34o12bob8o6bob8o36bobo$
178bobobobobobobobo30bobobobobobobob4o6bobobob4o7bo3bob8o4bo3b34o10bo
3b8o4bo3b34o10bo3b8o4bo3b34o10bo3b8o4bo3b8o34bo3bo208bo$177bo15bo28bo
7bo7b4o4bo7b4o5bobobobob8o2bobobob34o8bobobob8o2bobobob34o8bobobob8o2b
obobob34o8bobobob8o2bobobob8o32bobobobo$176bobo13bobo26bobo5bobo5bob4o
2bobo5bob4o3bo7bob9o7b34o6bo7b9o7b34o6bo7b9o7b34o6bo7b9o7b8o30bo7bo$
175bo3bo11bo3bo24bo3bo3bo3bo3bo3b5o3bo3bo3b4obobo5bobob9o5bob34o4bobo
5bob9o5bob34o4bobo5bob9o5bob34o4bobo5bob9o5bob8o28bobo5bobo$174bobobob
o9bobobobo22bobobobobobobobobobobob5obobobobobob4o3bo3bo3bob9o3bo3b34o
2bo3bo3bo3b9o3bo3b34o2bo3bo3bo3b9o3bo3b34o2bo3bo3bo3b9o3bo3b8o26bo3bo
3bo3bo$173bo7bo7bo7bo20bo15bo7b4o12b4obobobobobobob9obobobob35obobobob
obobob9obobobob35obobobobobobob9obobobob35obobobobobobob9obobobob8o24b
obobobobobobobo$172bobo5bobo5bobo5bobo18bobo13bobo5bob4o10b5o12bob8o8b
34o14b8o8b34o14b8o8b34o14b8o8b8o22bo15bo$171bo3bo3bo3bo3bo3bo3bo3bo16b
o3bo11bo3bo3bo3b4o8b7o10bobob8o6bob34o12bob8o6bob34o12bob8o6bob34o12bo
b8o6bob8o20bobo13bobo$170bobobobobobobobobobobobobobobobo14bobobobo9bo
bobobobobobob4o6b9o8bo3bob8o4bo3b34o10bo3b8o4bo3b34o10bo3b8o4bo3b34o
10bo3b8o4bo3b8o18bo3bo11bo3bo$169bo31bo12bo7bo7bo7bo7b4o4b11o6bobobobo
b8o2bobobob34o8bobobob8o2bobobob34o8bobobob8o2bobobob34o8bobobob8o2bob
obob8o16bobobobo9bobobobo$168bobo29bobo10bobo5bobo5bobo5bobo5bob4o2b
13o4bo7bob9o7b34o6bo7b9o7b34o6bo7b9o7b34o6bo7b9o7b8o14bo7bo7bo7bo$167b
o3bo27bo3bo8bo3bo3bo3bo3bo3bo3bo3bo3bo3b19o2bobo5bobob9o5bob34o4bobo5b
ob9o5bob34o4bobo5bob9o5bob34o4bobo5bob9o5bob8o12bobo5bobo5bobo5bobo$
166bobobobo25bobobobo6bobobobobobobobobobobobobobobobobobobob20o3bo3bo
3bob9o3bo3b34o2bo3bo3bo3b9o3bo3b34o2bo3bo3bo3b9o3bo3b34o2bo3bo3bo3b9o
3bo3b8o10bo3bo3bo3bo3bo3bo3bo3bo$165bo7bo23bo7bo4bo31bo7b20obobobobobo
bob9obobobob35obobobobobobob9obobobob35obobobobobobob9obobobob35obobob
obobobob9obobobob8o8bobobobobobobobobobobobobobobobo$164bobo5bobo21bob
o5bobo2bobo29bobo5b21o12bob8o8b34o14b8o8b34o14b8o8b34o14b8o8b8o6bo31bo
$163bo3bo3bo3bo19bo3bo3bo3b2o3bo27bo3bo3b23o10bobob8o6bob34o12bob8o6bo
b34o12bob8o6bob34o12bob8o6bob8o4bobo29bobo$162bobobobobobobobo17bobobo
bobobob4obobo25bobobobob25o8bo3bob8o4bo3b34o10bo3b8o4bo3b34o10bo3b8o4b
o3b34o10bo3b8o4bo3b8o2bo3bo27bo3bo$161bo15bo15bo12b4o4bo23bo7b27o6bobo
bobob8o2bobobob34o8bobobob8o2bobobob34o8bobobob8o2bobobob34o8bobobob8o
2bobobob9obobobo25bobobobo$160bobo13bobo13bobo10bob4o2bobo21bobo5b29o
4bo7bob9o7b34o6bo7b9o7b34o6bo7b9o7b34o6bo7b9o7b8o6bo23bo7bo$159bo3bo
11bo3bo11bo3bo8bo3b5o3bo19bo3bo3b31o2bobo5bobob9o5bob34o4bobo5bob9o5bo
b34o4bobo5bob9o5bob34o4bobo5bob9o5bob8o4bobo21bobo5bobo$158bobobobo9bo
bobobo9bobobobo6bobobob5obobo17bobobobob34o3bo3bo3bob9o3bo3b34o2bo3bo
3bo3b9o3bo3b34o2bo3bo3bo3b9o3bo3b34o2bo3bo3bo3b9o3bo3b8o2bo3bo19bo3bo
3bo3bo$157bo7bo7bo7bo7bo7bo4bo7b4o4bo15bo8b35obobobobobobob9obobobob
35obobobobobobob9obobobob35obobobobobobob9obobobob35obobobobobobob9obo
bobob9obobobo17bobobobobobobobo$156bobo5bobo5bobo5bobo5bobo5bobo2bobo
5bob4o2bobo13bobo6bob34o12bob8o8b34o14b8o8b34o14b8o8b34o14b8o6bob8o6bo
15bo15bo$155bo3bo3bo3bo3bo3bo3bo3bo3bo3bo3bo3b2o3bo3bo3b5o3bo11bo3bo4b
obob34o10bobob8o6bob34o12bob8o6bob34o12bob8o6bob34o12bob8o4bobob8o4bob
o13bobo13bobo$154bobobobobobobobobobobobobobobobobobobobobobob4obobobo
bobob5obobo9bobobobo2bo3bob34o8bo3bob8o4bo3b34o10bo3b8o4bo3b34o10bo3b
8o4bo3b34o10bo3b8o2bo3bob8o2bo3bo11bo3bo11bo3bo$153bo44b4o4bo7b4o4bo7b
o7b2obobobob34o6bobobobob8o2bobobob34o8bobobob8o2bobobob34o8bobobob8o
2bobobob34o8bobobob9obobobob9obobobo9bobobobo9bobobobo$152bobo42bob4o
2bobo5bob4o2bobo5bobo5b3o6bob34o4bo7bob9o7b34o6bo7b9o7b34o6bo7b9o7b34o
6bo7b8o6bob8o6bo7bo7bo7bo7bo$151bo3bo40bo3b5o3bo3bo3b5o3bo3bo3bo3b5o4b
obob34o2bobo5bobob9o5bob34o4bobo5bob9o5bob34o4bobo5bob9o5bob34o4bobo5b
ob8o4bobob8o4bobo5bobo5bobo5bobo5bobo$150bobobobo38bobobob5obobobobobo
b5obobobobobobob7o2bo3bob35o3bo3bo3bob9o3bo3b34o2bo3bo3bo3b9o3bo3b34o
2bo3bo3bo3b9o3bo3b34o2bo3bo3bo3b8o2bo3bob8o2bo3bo3bo3bo3bo3bo3bo3bo3bo
3bo$149bo7bo36bo7b4o12b4o13b9obobobob35obobobobobobob9obobobob35obobob
obobobob9obobobob35obobobobobobob9obobobob35obobobobobobob9obobobob9ob
obobobobobobobobobobobobobobobobobobo$148bobo5bobo34bobo5bob4o10bob4o
11bob8o8b34o12bob8o8b34o14b8o8b34o14b8o8b34o12bob8o8b8o38bo$147bo3bo3b
o3bo32bo3bo3bo3b4o8bo3b4o9bobob8o6bob34o10bobob8o6bob34o12bob8o6bob34o
12bob8o6bob34o10bobob8o6bob8o36bobo$146bobobobobobobobo30bobobobobobob
ob4o6bobobob4o7bo3bob8o4bo3b34o8bo3bob8o4bo3b34o10bo3b8o4bo3b34o10bo3b
8o4bo3b34o8bo3bob8o4bo3b8o34bo3bo$145bo15bo28bo7bo7b4o4bo7b4o5bobobobo
b8o2bobobob34o6bobobobob8o2bobobob34o8bobobob8o2bobobob34o8bobobob8o2b
obobob34o6bobobobob8o2bobobob8o32bobobobo$144bobo13bobo26bobo5bobo5bob
4o2bobo5bob4o3bo7bob9o7b34o4bo7bob9o7b34o6bo7b9o7b34o6bo7b9o7b34o4bo7b
ob9o7b8o30bo7bo$143bo3bo11bo3bo24bo3bo3bo3bo3bo3b5o3bo3bo3b4obobo5bobo
b9o5bob34o2bobo5bobob9o5bob34o4bobo5bob9o5bob34o4bobo5bob9o5bob34o2bob
o5bobob9o5bob8o28bobo5bobo$142bobobobo9bobobobo22bobobobobobobobobobob
ob5obobobobobob4o3bo3bo3bob9o3bo3b35o3bo3bo3bob9o3bo3b34o2bo3bo3bo3b9o
3bo3b34o2bo3bo3bo3b9o3bo3b35o3bo3bo3bob9o3bo3b8o26bo3bo3bo3bo$141bo7bo
7bo7bo20bo15bo7b4o12b4obobobobobobob9obobobob35obobobobobobob9obobobob
35obobobobobobob9obobobob35obobobobobobob9obobobob35obobobobobobob9obo
bobob8o24bobobobobobobobo$140bobo5bobo5bobo5bobo18bobo13bobo5bob4o10b
5o12bob8o8b34o12bob8o8b34o14b8o8b34o14b8o8b34o12bob8o8b8o22bo15bo$139b
o3bo3bo3bo3bo3bo3bo3bo16bo3bo11bo3bo3bo3b4o8b7o10bobob8o6bob34o10bobob
8o6bob34o12bob8o6bob34o12bob8o6bob34o10bobob8o6bob8o20bobo13bobo$138bo
bobobobobobobobobobobobobobobo14bobobobo9bobobobobobobob4o6b9o8bo3bob
8o4bo3b34o8bo3bob8o4bo3b34o10bo3b8o4bo3b34o10bo3b8o4bo3b34o8bo3bob8o4b
o3b8o18bo3bo11bo3bo$137bo31bo12bo7bo7bo7bo7b4o4b11o6bobobobob8o2bobobo
b34o6bobobobob8o2bobobob34o8bobobob8o2bobobob34o8bobobob8o2bobobob34o
6bobobobob8o2bobobob8o16bobobobo9bobobobo$136bobo29bobo10bobo5bobo5bob
o5bobo5bob4o2b13o4bo7bob9o7b34o4bo7bob9o7b34o6bo7b9o7b34o6bo7b9o7b34o
4bo7bob9o7b8o14bo7bo7bo7bo$135bo3bo27bo3bo8bo3bo3bo3bo3bo3bo3bo3bo3bo
3b19o2bobo5bobob9o5bob34o2bobo5bobob9o5bob34o4bobo5bob9o5bob34o4bobo5b
ob9o5bob34o2bobo5bobob9o5bob8o12bobo5bobo5bobo5bobo$134bobobobo25bobob
obo6bobobobobobobobobobobobobobobobobobobob20o3bo3bo3bob9o3bo3b35o3bo
3bo3bob9o3bo3b34o2bo3bo3bo3b9o3bo3b34o2bo3bo3bo3b9o3bo3b35o3bo3bo3bob
9o3bo3b8o10bo3bo3bo3bo3bo3bo3bo3bo$133bo7bo23bo7bo4bo31bo7b20obobobobo
bobob9obobobob35obobobobobobob9obobobob35obobobobobobob9obobobob35obob
obobobobob9obobobob35obobobobobobob9obobobob8o8bobobobobobobobobobobob
obobobobo$132bobo5bobo21bobo5bobo2bobo29bobo5b21o12bob8o8b34o12bob8o8b
34o14b8o8b34o14b8o8b34o12bob8o8b8o6bo31bo$131bo3bo3bo3bo19bo3bo3bo3b2o
3bo27bo3bo3b23o10bobob8o6bob34o10bobob8o6bob34o12bob8o6bob34o12bob8o6b
ob34o10bobob8o6bob8o4bobo29bobo$130bobobobobobobobo17bobobobobobob4obo
bo25bobobobob25o8bo3bob8o4bo3b34o8bo3bob8o4bo3b34o10bo3b8o4bo3b34o10bo
3b8o4bo3b34o8bo3bob8o4bo3b8o2bo3bo27bo3bo$129bo15bo15bo12b4o4bo23bo7b
27o6bobobobob8o2bobobob34o6bobobobob8o2bobobob34o8bobobob8o2bobobob34o
8bobobob8o2bobobob34o6bobobobob8o2bobobob9obobobo25bobobobo$128bobo13b
obo13bobo10bob4o2bobo21bobo5b29o4bo7bob9o7b34o4bo7bob9o7b34o6bo7b9o7b
34o6bo7b9o7b34o4bo7bob9o7b8o6bo23bo7bo$127bo3bo11bo3bo11bo3bo8bo3b5o3b
o19bo3bo3b31o2bobo5bobob9o5bob34o2bobo5bobob9o5bob34o4bobo5bob9o5bob
34o4bobo5bob9o5bob34o2bobo5bobob9o5bob8o4bobo21bobo5bobo$126bobobobo9b
obobobo9bobobobo6bobobob5obobo17bobobobob34o3bo3bo3bob9o3bo3b35o3bo3bo
3bob9o3bo3b34o2bo3bo3bo3b9o3bo3b34o2bo3bo3bo3b9o3bo3b35o3bo3bo3bob9o3b
o3b8o2bo3bo19bo3bo3bo3bo$125bo7bo7bo7bo7bo7bo4bo7b4o4bo15bo8b35obobobo
bobobob9obobobob35obobobobobobob9obobobob35obobobobobobob9obobobob35ob
obobobobobob9obobobob35obobobobobobob9obobobob9obobobo17bobobobobobobo
bo$124bobo5bobo5bobo5bobo5bobo5bobo2bobo5bob4o2bobo13bobo6bob34o12bob
8o6bob34o12bob8o8b34o14b8o8b34o14b8o6bob34o12bob8o6bob8o6bo15bo15bo$
123bo3bo3bo3bo3bo3bo3bo3bo3bo3bo3bo3b2o3bo3bo3b5o3bo11bo3bo4bobob34o
10bobob8o4bobob34o10bobob8o6bob34o12bob8o6bob34o12bob8o4bobob34o10bobo
b8o4bobob8o4bobo13bobo13bobo$122bobobobobobobobobobobobobobobobobobobo
bobobob4obobobobobob5obobo9bobobobo2bo3bob34o8bo3bob8o2bo3bob34o8bo3bo
b8o4bo3b34o10bo3b8o4bo3b34o10bo3b8o2bo3bob34o8bo3bob8o2bo3bob8o2bo3bo
11bo3bo11bo3bo$121bo44b4o4bo7b4o4bo7bo7b2obobobob34o6bobobobob9obobobo
b34o6bobobobob8o2bobobob34o8bobobob8o2bobobob34o8bobobob9obobobob34o6b
obobobob9obobobob9obobobo9bobobobo9bobobobo$120bobo42bob4o2bobo5bob4o
2bobo5bobo5b3o6bob34o4bo7bob8o6bob34o4bo7bob9o7b34o6bo7b9o7b34o6bo7b8o
6bob34o4bo7bob8o6bob8o6bo7bo7bo7bo7bo$119bo3bo40bo3b5o3bo3bo3b5o3bo3bo
3bo3b5o4bobob34o2bobo5bobob8o4bobob34o2bobo5bobob9o5bob34o4bobo5bob9o
5bob34o4bobo5bob8o4bobob34o2bobo5bobob8o4bobob8o4bobo5bobo5bobo5bobo5b
obo$118bobobobo38bobobob5obobobobobob5obobobobobobob7o2bo3bob35o3bo3bo
3bob8o2bo3bob35o3bo3bo3bob9o3bo3b34o2bo3bo3bo3b9o3bo3b34o2bo3bo3bo3b8o
2bo3bob35o3bo3bo3bob8o2bo3bob8o2bo3bo3bo3bo3bo3bo3bo3bo3bo3bo$117bo7bo
36bo7b4o12b4o13b9obobobob35obobobobobobob9obobobob35obobobobobobob9obo
bobob35obobobobobobob9obobobob35obobobobobobob9obobobob35obobobobobobo
b9obobobob9obobobobobobobobobobobobobobobobobobobo$116bobo5bobo34bobo
5bob4o10bob4o11bob8o8b34o14b8o8b34o12bob8o8b34o14b8o8b34o12bob8o8b34o
14b8o8b8o38bo$115bo3bo3bo3bo32bo3bo3bo3b4o8bo3b4o9bobob8o6bob34o12bob
8o6bob34o10bobob8o6bob34o12bob8o6bob34o10bobob8o6bob34o12bob8o6bob8o
36bobo$114bobobobobobobobo30bobobobobobobob4o6bobobob4o7bo3bob8o4bo3b
34o10bo3b8o4bo3b34o8bo3bob8o4bo3b34o10bo3b8o4bo3b34o8bo3bob8o4bo3b34o
10bo3b8o4bo3b8o34bo3bo$113bo15bo28bo7bo7b4o4bo7b4o5bobobobob8o2bobobob
34o8bobobob8o2bobobob34o6bobobobob8o2bobobob34o8bobobob8o2bobobob34o6b
obobobob8o2bobobob34o8bobobob8o2bobobob8o32bobobobo$112bobo13bobo26bob
o5bobo5bob4o2bobo5bob4o3bo7bob9o7b34o6bo7b9o7b34o4bo7bob9o7b34o6bo7b9o
7b34o4bo7bob9o7b34o6bo7b9o7b8o30bo7bo$111bo3bo11bo3bo24bo3bo3bo3bo3bo
3b5o3bo3bo3b4obobo5bobob9o5bob34o4bobo5bob9o5bob34o2bobo5bobob9o5bob
34o4bobo5bob9o5bob34o2bobo5bobob9o5bob34o4bobo5bob9o5bob8o28bobo5bobo$
110bobobobo9bobobobo22bobobobobobobobobobobob5obobobobobob4o3bo3bo3bob
9o3bo3b34o2bo3bo3bo3b9o3bo3b35o3bo3bo3bob9o3bo3b34o2bo3bo3bo3b9o3bo3b
35o3bo3bo3bob9o3bo3b34o2bo3bo3bo3b9o3bo3b8o26bo3bo3bo3bo$109bo7bo7bo7b
o20bo15bo7b4o12b4obobobobobobob9obobobob35obobobobobobob9obobobob35obo
bobobobobob9obobobob35obobobobobobob9obobobob35obobobobobobob9obobobob
35obobobobobobob9obobobob8o24bobobobobobobobo$108bobo5bobo5bobo5bobo
18bobo13bobo5bob4o10b5o12bob8o8b34o14b8o8b34o12bob8o8b34o14b8o8b34o12b
ob8o8b34o14b8o8b8o22bo15bo$107bo3bo3bo3bo3bo3bo3bo3bo16bo3bo11bo3bo3bo
3b4o8b7o10bobob8o6bob34o12bob8o6bob34o10bobob8o6bob34o12bob8o6bob34o
10bobob8o6bob34o12bob8o6bob8o20bobo13bobo$106bobobobobobobobobobobobob
obobobo14bobobobo9bobobobobobobob4o6b9o8bo3bob8o4bo3b34o10bo3b8o4bo3b
34o8bo3bob8o4bo3b34o10bo3b8o4bo3b34o8bo3bob8o4bo3b34o10bo3b8o4bo3b8o
18bo3bo11bo3bo$105bo31bo12bo7bo7bo7bo7b4o4b11o6bobobobob8o2bobobob34o
8bobobob8o2bobobob34o6bobobobob8o2bobobob34o8bobobob8o2bobobob34o6bobo
bobob8o2bobobob34o8bobobob8o2bobobob8o16bobobobo9bobobobo$104bobo29bob
o10bobo5bobo5bobo5bobo5bob4o2b13o4bo7bob9o7b34o6bo7b9o7b34o4bo7bob9o7b
34o6bo7b9o7b34o4bo7bob9o7b34o6bo7b9o7b8o14bo7bo7bo7bo$103bo3bo27bo3bo
8bo3bo3bo3bo3bo3bo3bo3bo3bo3b19o2bobo5bobob9o5bob34o4bobo5bob9o5bob34o
2bobo5bobob9o5bob34o4bobo5bob9o5bob34o2bobo5bobob9o5bob34o4bobo5bob9o
5bob8o12bobo5bobo5bobo5bobo$102bobobobo25bobobobo6bobobobobobobobobobo
bobobobobobobobobob20o3bo3bo3bob9o3bo3b34o2bo3bo3bo3b9o3bo3b35o3bo3bo
3bob9o3bo3b34o2bo3bo3bo3b9o3bo3b35o3bo3bo3bob9o3bo3b34o2bo3bo3bo3b9o3b
o3b8o10bo3bo3bo3bo3bo3bo3bo3bo$101bo7bo23bo7bo4bo31bo7b20obobobobobobo
b9obobobob35obobobobobobob9obobobob35obobobobobobob9obobobob35obobobob
obobob9obobobob35obobobobobobob9obobobob35obobobobobobob9obobobob8o8bo
bobobobobobobobobobobobobobobo$100bobo5bobo21bobo5bobo2bobo29bobo5b21o
12bob8o8b34o14b8o8b34o12bob8o8b34o14b8o8b34o12bob8o8b34o14b8o8b8o6bo
31bo$99bo3bo3bo3bo19bo3bo3bo3b2o3bo27bo3bo3b23o10bobob8o6bob34o12bob8o
6bob34o10bobob8o6bob34o12bob8o6bob34o10bobob8o6bob34o12bob8o6bob8o4bob
o29bobo$98bobobobobobobobo17bobobobobobob4obobo25bobobobob25o8bo3bob8o
4bo3b34o10bo3b8o4bo3b34o8bo3bob8o4bo3b34o10bo3b8o4bo3b34o8bo3bob8o4bo
3b34o10bo3b8o4bo3b8o2bo3bo27bo3bo$97bo15bo15bo12b4o4bo23bo7b27o6bobobo
bob8o2bobobob34o8bobobob8o2bobobob34o6bobobobob8o2bobobob34o8bobobob8o
2bobobob34o6bobobobob8o2bobobob34o8bobobob8o2bobobob9obobobo25bobobobo
$96bobo13bobo13bobo10bob4o2bobo21bobo5b29o4bo7bob9o7b34o6bo7b9o7b34o4b
o7bob9o7b34o6bo7b9o7b34o4bo7bob9o7b34o6bo7b9o7b8o6bo23bo7bo$95bo3bo11b
o3bo11bo3bo8bo3b5o3bo19bo3bo3b31o2bobo5bobob9o5bob34o4bobo5bob9o5bob
34o2bobo5bobob9o5bob34o4bobo5bob9o5bob34o2bobo5bobob9o5bob34o4bobo5bob
9o5bob8o4bobo21bobo5bobo$94bobobobo9bobobobo9bobobobo6bobobob5obobo17b
obobobob34o3bo3bo3bob9o3bo3b34o2bo3bo3bo3b9o3bo3b35o3bo3bo3bob9o3bo3b
34o2bo3bo3bo3b9o3bo3b35o3bo3bo3bob9o3bo3b34o2bo3bo3bo3b9o3bo3b8o2bo3bo
19bo3bo3bo3bo$93bo7bo7bo7bo7bo7bo4bo7b4o4bo15bo8b35obobobobobobob9obob
obob35obobobobobobob9obobobob35obobobobobobob9obobobob35obobobobobobob
9obobobob35obobobobobobob9obobobob35obobobobobobob9obobobob9obobobo17b
obobobobobobobo$92bobo5bobo5bobo5bobo5bobo5bobo2bobo5bob4o2bobo13bobo
6bob34o12bob8o8b34o14b8o6bob34o12bob8o8b34o14b8o6bob34o12bob8o8b34o14b
8o6bob8o6bo15bo15bo$91bo3bo3bo3bo3bo3bo3bo3bo3bo3bo3bo3b2o3bo3bo3b5o3b
o11bo3bo4bobob34o10bobob8o6bob34o12bob8o4bobob34o10bobob8o6bob34o12bob
8o4bobob34o10bobob8o6bob34o12bob8o4bobob8o4bobo13bobo13bobo$90bobobobo
bobobobobobobobobobobobobobobobobobob4obobobobobob5obobo9bobobobo2bo3b
ob34o8bo3bob8o4bo3b34o10bo3b8o2bo3bob34o8bo3bob8o4bo3b34o10bo3b8o2bo3b
ob34o8bo3bob8o4bo3b34o10bo3b8o2bo3bob8o2bo3bo11bo3bo11bo3bo$89bo44b4o
4bo7b4o4bo7bo7b2obobobob34o6bobobobob8o2bobobob34o8bobobob9obobobob34o
6bobobobob8o2bobobob34o8bobobob9obobobob34o6bobobobob8o2bobobob34o8bob
obob9obobobob9obobobo9bobobobo9bobobobo$88bobo42bob4o2bobo5bob4o2bobo
5bobo5b3o6bob34o4bo7bob9o7b34o6bo7b8o6bob34o4bo7bob9o7b34o6bo7b8o6bob
34o4bo7bob9o7b34o6bo7b8o6bob8o6bo7bo7bo7bo7bo$87bo3bo40bo3b5o3bo3bo3b
5o3bo3bo3bo3b5o4bobob34o2bobo5bobob9o5bob34o4bobo5bob8o4bobob34o2bobo
5bobob9o5bob34o4bobo5bob8o4bobob34o2bobo5bobob9o5bob34o4bobo5bob8o4bob
ob8o4bobo5bobo5bobo5bobo5bobo$86bobobobo38bobobob5obobobobobob5obobobo
bobobob7o2bo3bob35o3bo3bo3bob9o3bo3b34o2bo3bo3bo3b8o2bo3bob35o3bo3bo3b
ob9o3bo3b34o2bo3bo3bo3b8o2bo3bob35o3bo3bo3bob9o3bo3b34o2bo3bo3bo3b8o2b
o3bob8o2bo3bo3bo3bo3bo3bo3bo3bo3bo3bo$85bo7bo36bo7b4o12b4o13b9obobobob
35obobobobobobob9obobobob35obobobobobobob9obobobob35obobobobobobob9obo
bobob35obobobobobobob9obobobob35obobobobobobob9obobobob35obobobobobobo
b9obobobob9obobobobobobobobobobobobobobobobobobobo$84bobo5bobo34bobo5b
ob4o10bob4o11bob8o8b34o12bob8o8b34o12bob8o8b34o12bob8o8b34o12bob8o8b
34o12bob8o8b34o12bob8o8b8o38bo$83bo3bo3bo3bo32bo3bo3bo3b4o8bo3b4o9bobo
b8o6bob34o10bobob8o6bob34o10bobob8o6bob34o10bobob8o6bob34o10bobob8o6bo
b34o10bobob8o6bob34o10bobob8o6bob8o36bobo$82bobobobobobobobo30bobobobo
bobobob4o6bobobob4o7bo3bob8o4bo3b34o8bo3bob8o4bo3b34o8bo3bob8o4bo3b34o
8bo3bob8o4bo3b34o8bo3bob8o4bo3b34o8bo3bob8o4bo3b34o8bo3bob8o4bo3b8o34b
o3bo$81bo15bo28bo7bo7b4o4bo7b4o5bobobobob8o2bobobob34o6bobobobob8o2bob
obob34o6bobobobob8o2bobobob34o6bobobobob8o2bobobob34o6bobobobob8o2bobo
bob34o6bobobobob8o2bobobob34o6bobobobob8o2bobobob8o32bobobobo$80bobo
13bobo26bobo5bobo5bob4o2bobo5bob4o3bo7bob9o7b34o4bo7bob9o7b34o4bo7bob
9o7b34o4bo7bob9o7b34o4bo7bob9o7b34o4bo7bob9o7b34o4bo7bob9o7b8o30bo7bo$
79bo3bo11bo3bo24bo3bo3bo3bo3bo3b5o3bo3bo3b4obobo5bobob9o5bob34o2bobo5b
obob9o5bob34o2bobo5bobob9o5bob34o2bobo5bobob9o5bob34o2bobo5bobob9o5bob
34o2bobo5bobob9o5bob34o2bobo5bobob9o5bob8o28bobo5bobo$78bobobobo9bobob
obo22bobobobobobobobobobobob5obobobobobob4o3bo3bo3bob9o3bo3b35o3bo3bo
3bob9o3bo3b35o3bo3bo3bob9o3bo3b35o3bo3bo3bob9o3bo3b35o3bo3bo3bob9o3bo
3b35o3bo3bo3bob9o3bo3b35o3bo3bo3bob9o3bo3b8o26bo3bo3bo3bo$77bo7bo7bo7b
o20bo15bo7b4o12b4obobobobobobob9obobobob35obobobobobobob9obobobob35obo
bobobobobob9obobobob35obobobobobobob9obobobob35obobobobobobob9obobobob
35obobobobobobob9obobobob35obobobobobobob9obobobob8o24bobobobobobobobo
$76bobo5bobo5bobo5bobo18bobo13bobo5bob4o10b5o12bob8o8b34o12bob8o8b34o
12bob8o8b34o12bob8o8b34o12bob8o8b34o12bob8o8b34o12bob8o8b8o22bo15bo$
75bo3bo3bo3bo3bo3bo3bo3bo16bo3bo11bo3bo3bo3b4o8b7o10bobob8o6bob34o10bo
bob8o6bob34o10bobob8o6bob34o10bobob8o6bob34o10bobob8o6bob34o10bobob8o
6bob34o10bobob8o6bob8o20bobo13bobo$74bobobobobobobobobobobobobobobobo
14bobobobo9bobobobobobobob4o6b9o8bo3bob8o4bo3b34o8bo3bob8o4bo3b34o8bo
3bob8o4bo3b34o8bo3bob8o4bo3b34o8bo3bob8o4bo3b34o8bo3bob8o4bo3b34o8bo3b
ob8o4bo3b8o18bo3bo11bo3bo$73bo31bo12bo7bo7bo7bo7b4o4b11o6bobobobob8o2b
obobob34o6bobobobob8o2bobobob34o6bobobobob8o2bobobob34o6bobobobob8o2bo
bobob34o6bobobobob8o2bobobob34o6bobobobob8o2bobobob34o6bobobobob8o2bob
obob8o16bobobobo9bobobobo$72bobo29bobo10bobo5bobo5bobo5bobo5bob4o2b13o
4bo7bob9o7b34o4bo7bob9o7b34o4bo7bob9o7b34o4bo7bob9o7b34o4bo7bob9o7b34o
4bo7bob9o7b34o4bo7bob9o7b8o14bo7bo7bo7bo$71bo3bo27bo3bo8bo3bo3bo3bo3bo
3bo3bo3bo3bo3b19o2bobo5bobob9o5bob34o2bobo5bobob9o5bob34o2bobo5bobob9o
5bob34o2bobo5bobob9o5bob34o2bobo5bobob9o5bob34o2bobo5bobob9o5bob34o2bo
bo5bobob9o5bob8o12bobo5bobo5bobo5bobo$70bobobobo25bobobobo6bobobobobob
obobobobobobobobobobobobobob20o3bo3bo3bob9o3bo3b35o3bo3bo3bob9o3bo3b
35o3bo3bo3bob9o3bo3b35o3bo3bo3bob9o3bo3b35o3bo3bo3bob9o3bo3b35o3bo3bo
3bob9o3bo3b35o3bo3bo3bob9o3bo3b8o10bo3bo3bo3bo3bo3bo3bo3bo$69bo7bo23bo
7bo4bo31bo7b20obobobobobobob9obobobob35obobobobobobob9obobobob35obobob
obobobob9obobobob35obobobobobobob9obobobob35obobobobobobob9obobobob35o
bobobobobobob9obobobob35obobobobobobob9obobobob8o8bobobobobobobobobobo
bobobobobobo$68bobo5bobo21bobo5bobo2bobo29bobo5b21o12bob8o8b34o12bob8o
8b34o12bob8o8b34o12bob8o8b34o12bob8o8b34o12bob8o8b34o12bob8o8b8o6bo31b
o$67bo3bo3bo3bo19bo3bo3bo3b2o3bo27bo3bo3b23o10bobob8o6bob34o10bobob8o
6bob34o10bobob8o6bob34o10bobob8o6bob34o10bobob8o6bob34o10bobob8o6bob
34o10bobob8o6bob8o4bobo29bobo$66bobobobobobobobo17bobobobobobob4obobo
25bobobobob25o8bo3bob8o4bo3b34o8bo3bob8o4bo3b34o8bo3bob8o4bo3b34o8bo3b
ob8o4bo3b34o8bo3bob8o4bo3b34o8bo3bob8o4bo3b34o8bo3bob8o4bo3b8o2bo3bo
27bo3bo$65bo15bo15bo12b4o4bo23bo7b27o6bobobobob8o2bobobob34o6bobobobob
8o2bobobob34o6bobobobob8o2bobobob34o6bobobobob8o2bobobob34o6bobobobob
8o2bobobob34o6bobobobob8o2bobobob34o6bobobobob8o2bobobob9obobobo25bobo
bobo$64bobo13bobo13bobo10bob4o2bobo21bobo5b29o4bo7bob9o7b34o4bo7bob9o
7b34o4bo7bob9o7b34o4bo7bob9o7b34o4bo7bob9o7b34o4bo7bob9o7b34o4bo7bob9o
7b8o6bo23bo7bo$63bo3bo11bo3bo11bo3bo8bo3b5o3bo19bo3bo3b31o2bobo5bobob
9o5bob34o2bobo5bobob9o5bob34o2bobo5bobob9o5bob34o2bobo5bobob9o5bob34o
2bobo5bobob9o5bob34o2bobo5bobob9o5bob34o2bobo5bobob9o5bob8o4bobo21bobo
5bobo$62bobobobo9bobobobo9bobobobo6bobobob5obobo17bobobobob34o3bo3bo3b
ob9o3bo3b35o3bo3bo3bob9o3bo3b35o3bo3bo3bob9o3bo3b35o3bo3bo3bob9o3bo3b
35o3bo3bo3bob9o3bo3b35o3bo3bo3bob9o3bo3b35o3bo3bo3bob9o3bo3b8o2bo3bo
19bo3bo3bo3bo$61bo7bo7bo7bo7bo7bo4bo7b4o4bo15bo8b35obobobobobobob9obob
obob35obobobobobobob9obobobob35obobobobobobob9obobobob35obobobobobobob
9obobobob35obobobobobobob9obobobob35obobobobobobob9obobobob35obobobobo
bobob9obobobob9obobobo17bobobobobobobobo$60bobo5bobo5bobo5bobo5bobo5bo
bo2bobo5bob4o2bobo13bobo6bob34o12bob8o6bob34o12bob8o6bob34o12bob8o6bob
34o12bob8o6bob34o12bob8o6bob34o12bob8o6bob34o12bob8o6bob8o6bo15bo15bo$
59bo3bo3bo3bo3bo3bo3bo3bo3bo3bo3bo3b2o3bo3bo3b5o3bo11bo3bo4bobob34o10b
obob8o4bobob34o10bobob8o4bobob34o10bobob8o4bobob34o10bobob8o4bobob34o
10bobob8o4bobob34o10bobob8o4bobob34o10bobob8o4bobob8o4bobo13bobo13bobo
$58bobobobobobobobobobobobobobobobobobobobobobob4obobobobobob5obobo9bo
bobobo2bo3bob34o8bo3bob8o2bo3bob34o8bo3bob8o2bo3bob34o8bo3bob8o2bo3bob
34o8bo3bob8o2bo3bob34o8bo3bob8o2bo3bob34o8bo3bob8o2bo3bob34o8bo3bob8o
2bo3bob8o2bo3bo11bo3bo11bo3bo$57bo44b4o4bo7b4o4bo7bo7b2obobobob34o6bob
obobob9obobobob34o6bobobobob9obobobob34o6bobobobob9obobobob34o6bobobob
ob9obobobob34o6bobobobob9obobobob34o6bobobobob9obobobob34o6bobobobob9o
bobobob9obobobo9bobobobo9bobobobo$56bobo42bob4o2bobo5bob4o2bobo5bobo5b
3o6bob34o4bo7bob8o6bob34o4bo7bob8o6bob34o4bo7bob8o6bob34o4bo7bob8o6bob
34o4bo7bob8o6bob34o4bo7bob8o6bob34o4bo7bob8o6bob8o6bo7bo7bo7bo7bo$55bo
3bo40bo3b5o3bo3bo3b5o3bo3bo3bo3b5o4bobob34o2bobo5bobob8o4bobob34o2bobo
5bobob8o4bobob34o2bobo5bobob8o4bobob34o2bobo5bobob8o4bobob34o2bobo5bob
ob8o4bobob34o2bobo5bobob8o4bobob34o2bobo5bobob8o4bobob8o4bobo5bobo5bob
o5bobo5bobo$54bobobobo38bobobob5obobobobobob5obobobobobobob7o2bo3bob
35o3bo3bo3bob8o2bo3bob35o3bo3bo3bob8o2bo3bob35o3bo3bo3bob8o2bo3bob35o
3bo3bo3bob8o2bo3bob35o3bo3bo3bob8o2bo3bob35o3bo3bo3bob8o2bo3bob35o3bo
3bo3bob8o2bo3bob8o2bo3bo3bo3bo3bo3bo3bo3bo3bo3bo$53bo7bo36bo7b4o12b4o
13b9obobobob35obobobobobobob9obobobob35obobobobobobob9obobobob35obobob
obobobob9obobobob35obobobobobobob9obobobob35obobobobobobob9obobobob35o
bobobobobobob9obobobob35obobobobobobob9obobobob9obobobobobobobobobobob
obobobobobobobobo$52bobo5bobo34bobo5bob4o10bob4o11bob8o8b34o14b8o8b34o
14b8o8b34o14b8o8b34o14b8o8b34o14b8o8b34o14b8o8b34o14b8o8b8o38bo$51bo3b
o3bo3bo32bo3bo3bo3b4o8bo3b4o9bobob8o6bob34o12bob8o6bob34o12bob8o6bob
34o12bob8o6bob34o12bob8o6bob34o12bob8o6bob34o12bob8o6bob34o12bob8o6bob
8o36bobo$50bobobobobobobobo30bobobobobobobob4o6bobobob4o7bo3bob8o4bo3b
34o10bo3b8o4bo3b34o10bo3b8o4bo3b34o10bo3b8o4bo3b34o10bo3b8o4bo3b34o10b
o3b8o4bo3b34o10bo3b8o4bo3b34o10bo3b8o4bo3b8o34bo3bo$49bo15bo28bo7bo7b
4o4bo7b4o5bobobobob8o2bobobob34o8bobobob8o2bobobob34o8bobobob8o2bobobo
b34o8bobobob8o2bobobob34o8bobobob8o2bobobob34o8bobobob8o2bobobob34o8bo
bobob8o2bobobob34o8bobobob8o2bobobob8o32bobobobo$48bobo13bobo26bobo5bo
bo5bob4o2bobo5bob4o3bo7bob9o7b34o6bo7b9o7b34o6bo7b9o7b34o6bo7b9o7b34o
6bo7b9o7b34o6bo7b9o7b34o6bo7b9o7b34o6bo7b9o7b8o30bo7bo$47bo3bo11bo3bo
24bo3bo3bo3bo3bo3b5o3bo3bo3b4obobo5bobob9o5bob34o4bobo5bob9o5bob34o4bo
bo5bob9o5bob34o4bobo5bob9o5bob34o4bobo5bob9o5bob34o4bobo5bob9o5bob34o
4bobo5bob9o5bob34o4bobo5bob9o5bob8o28bobo5bobo$46bobobobo9bobobobo22bo
bobobobobobobobobobob5obobobobobob4o3bo3bo3bob9o3bo3b34o2bo3bo3bo3b9o
3bo3b34o2bo3bo3bo3b9o3bo3b34o2bo3bo3bo3b9o3bo3b34o2bo3bo3bo3b9o3bo3b
34o2bo3bo3bo3b9o3bo3b34o2bo3bo3bo3b9o3bo3b34o2bo3bo3bo3b9o3bo3b8o26bo
3bo3bo3bo$45bo7bo7bo7bo20bo15bo7b4o12b4obobobobobobob9obobobob35obobob
obobobob9obobobob35obobobobobobob9obobobob35obobobobobobob9obobobob35o
bobobobobobob9obobobob35obobobobobobob9obobobob35obobobobobobob9obobob
ob35obobobobobobob9obobobob8o24bobobobobobobobo$44bobo5bobo5bobo5bobo
18bobo13bobo5bob4o10b5o12bob8o8b34o14b8o8b34o14b8o8b34o14b8o8b34o14b8o
8b34o14b8o8b34o14b8o8b34o14b8o8b8o22bo15bo$43bo3bo3bo3bo3bo3bo3bo3bo
16bo3bo11bo3bo3bo3b4o8b7o10bobob8o6bob34o12bob8o6bob34o12bob8o6bob34o
12bob8o6bob34o12bob8o6bob34o12bob8o6bob34o12bob8o6bob34o12bob8o6bob8o
20bobo13bobo$42bobobobobobobobobobobobobobobobo14bobobobo9bobobobobobo
bob4o6b9o8bo3bob8o4bo3b34o10bo3b8o4bo3b34o10bo3b8o4bo3b34o10bo3b8o4bo
3b34o10bo3b8o4bo3b34o10bo3b8o4bo3b34o10bo3b8o4bo3b34o10bo3b8o4bo3b8o
18bo3bo11bo3bo$41bo31bo12bo7bo7bo7bo7b4o4b11o6bobobobob8o2bobobob34o8b
obobob8o2bobobob34o8bobobob8o2bobobob34o8bobobob8o2bobobob34o8bobobob
8o2bobobob34o8bobobob8o2bobobob34o8bobobob8o2bobobob34o8bobobob8o2bobo
bob8o16bobobobo9bobobobo$40bobo29bobo10bobo5bobo5bobo5bobo5bob4o2b13o
4bo7bob9o7b34o6bo7b9o7b34o6bo7b9o7b34o6bo7b9o7b34o6bo7b9o7b34o6bo7b9o
7b34o6bo7b9o7b34o6bo7b9o7b8o14bo7bo7bo7bo$39bo3bo27bo3bo8bo3bo3bo3bo3b
o3bo3bo3bo3bo3b19o2bobo5bobob9o5bob34o4bobo5bob9o5bob34o4bobo5bob9o5bo
b34o4bobo5bob9o5bob34o4bobo5bob9o5bob34o4bobo5bob9o5bob34o4bobo5bob9o
5bob34o4bobo5bob9o5bob8o12bobo5bobo5bobo5bobo$38bobobobo25bobobobo6bob
obobobobobobobobobobobobobobobobobob20o3bo3bo3bob9o3bo3b34o2bo3bo3bo3b
9o3bo3b34o2bo3bo3bo3b9o3bo3b34o2bo3bo3bo3b9o3bo3b34o2bo3bo3bo3b9o3bo3b
34o2bo3bo3bo3b9o3bo3b34o2bo3bo3bo3b9o3bo3b34o2bo3bo3bo3b9o3bo3b8o10bo
3bo3bo3bo3bo3bo3bo3bo$37bo7bo23bo7bo4bo31bo7b20obobobobobobob9obobobob
35obobobobobobob9obobobob35obobobobobobob9obobobob35obobobobobobob9obo
bobob35obobobobobobob9obobobob35obobobobobobob9obobobob35obobobobobobo
b9obobobob35obobobobobobob9obobobob8o8bobobobobobobobobobobobobobobobo
$36bobo5bobo21bobo5bobo2bobo29bobo5b21o12bob8o8b34o14b8o8b34o14b8o8b
34o14b8o8b34o14b8o8b34o14b8o8b34o14b8o8b34o14b8o8b8o6bo31bo$35bo3bo3bo
3bo19bo3bo3bo3b2o3bo27bo3bo3b23o10bobob8o6bob34o12bob8o6bob34o12bob8o
6bob34o12bob8o6bob34o12bob8o6bob34o12bob8o6bob34o12bob8o6bob34o12bob8o
6bob8o4bobo29bobo$34bobobobobobobobo17bobobobobobob4obobo25bobobobob
25o8bo3bob8o4bo3b34o10bo3b8o4bo3b34o10bo3b8o4bo3b34o10bo3b8o4bo3b34o
10bo3b8o4bo3b34o10bo3b8o4bo3b34o10bo3b8o4bo3b34o10bo3b8o4bo3b8o2bo3bo
27bo3bo$33bo15bo15bo12b4o4bo23bo7b27o6bobobobob8o2bobobob34o8bobobob8o
2bobobob34o8bobobob8o2bobobob34o8bobobob8o2bobobob34o8bobobob8o2bobobo
b34o8bobobob8o2bobobob34o8bobobob8o2bobobob34o8bobobob8o2bobobob9obobo
bo25bobobobo$32bobo13bobo13bobo10bob4o2bobo21bobo5b29o4bo7bob9o7b34o6b
o7b9o7b34o6bo7b9o7b34o6bo7b9o7b34o6bo7b9o7b34o6bo7b9o7b34o6bo7b9o7b34o
6bo7b9o7b8o6bo23bo7bo$31bo3bo11bo3bo11bo3bo8bo3b5o3bo19bo3bo3b31o2bobo
5bobob9o5bob34o4bobo5bob9o5bob34o4bobo5bob9o5bob34o4bobo5bob9o5bob34o
4bobo5bob9o5bob34o4bobo5bob9o5bob34o4bobo5bob9o5bob34o4bobo5bob9o5bob
8o4bobo21bobo5bobo$30bobobobo9bobobobo9bobobobo6bobobob5obobo17bobobob
ob34o3bo3bo3bob9o3bo3b34o2bo3bo3bo3b9o3bo3b34o2bo3bo3bo3b9o3bo3b34o2bo
3bo3bo3b9o3bo3b34o2bo3bo3bo3b9o3bo3b34o2bo3bo3bo3b9o3bo3b34o2bo3bo3bo
3b9o3bo3b34o2bo3bo3bo3b9o3bo3b8o2bo3bo19bo3bo3bo3bo$29bo7bo7bo7bo7bo7b
o4bo7b4o4bo15bo8b35obobobobobobob9obobobob35obobobobobobob9obobobob35o
bobobobobobob9obobobob35obobobobobobob9obobobob35obobobobobobob9obobob
ob35obobobobobobob9obobobob35obobobobobobob9obobobob35obobobobobobob9o
bobobob9obobobo17bobobobobobobobo$28bobo5bobo5bobo5bobo5bobo5bobo2bobo
5bob4o2bobo13bobo6bob34o12bob8o8b34o14b8o8b34o14b8o8b34o14b8o8b34o14b
8o8b34o14b8o8b34o14b8o8b34o14b8o6bob8o6bo15bo15bo$27bo3bo3bo3bo3bo3bo
3bo3bo3bo3bo3bo3b2o3bo3bo3b5o3bo11bo3bo4bobob34o10bobob8o6bob34o12bob
8o6bob34o12bob8o6bob34o12bob8o6bob34o12bob8o6bob34o12bob8o6bob34o12bob
8o6bob34o12bob8o4bobob8o4bobo13bobo13bobo$26bobobobobobobobobobobobobo
bobobobobobobobobob4obobobobobob5obobo9bobobobo2bo3bob34o8bo3bob8o4bo
3b34o10bo3b8o4bo3b34o10bo3b8o4bo3b34o10bo3b8o4bo3b34o10bo3b8o4bo3b34o
10bo3b8o4bo3b34o10bo3b8o4bo3b34o10bo3b8o2bo3bob8o2bo3bo11bo3bo11bo3bo$
25bo44b4o4bo7b4o4bo7bo7b2obobobob34o6bobobobob8o2bobobob34o8bobobob8o
2bobobob34o8bobobob8o2bobobob34o8bobobob8o2bobobob34o8bobobob8o2bobobo
b34o8bobobob8o2bobobob34o8bobobob8o2bobobob34o8bobobob9obobobob9obobob
o9bobobobo9bobobobo$24bobo42bob4o2bobo5bob4o2bobo5bobo5b3o6bob34o4bo7b
ob9o7b34o6bo7b9o7b34o6bo7b9o7b34o6bo7b9o7b34o6bo7b9o7b34o6bo7b9o7b34o
6bo7b9o7b34o6bo7b8o6bob8o6bo7bo7bo7bo7bo$23bo3bo40bo3b5o3bo3bo3b5o3bo
3bo3bo3b5o4bobob34o2bobo5bobob9o5bob34o4bobo5bob9o5bob34o4bobo5bob9o5b
ob34o4bobo5bob9o5bob34o4bobo5bob9o5bob34o4bobo5bob9o5bob34o4bobo5bob9o
5bob34o4bobo5bob8o4bobob8o4bobo5bobo5bobo5bobo5bobo$22bobobobo38bobobo
b5obobobobobob5obobobobobobob7o2bo3bob35o3bo3bo3bob9o3bo3b34o2bo3bo3bo
3b9o3bo3b34o2bo3bo3bo3b9o3bo3b34o2bo3bo3bo3b9o3bo3b34o2bo3bo3bo3b9o3bo
3b34o2bo3bo3bo3b9o3bo3b34o2bo3bo3bo3b9o3bo3b34o2bo3bo3bo3b8o2bo3bob8o
2bo3bo3bo3bo3bo3bo3bo3bo3bo3bo$21bo7bo36bo7b4o12b4o13b9obobobob35obobo
bobobobob9obobobob35obobobobobobob9obobobob35obobobobobobob9obobobob
35obobobobobobob9obobobob35obobobobobobob9obobobob35obobobobobobob9obo
bobob35obobobobobobob9obobobob35obobobobobobob9obobobob9obobobobobobob
obobobobobobobobobobobobo$20bobo5bobo34bobo5bob4o10bob4o11bob8o8b34o
12bob8o8b34o14b8o8b34o14b8o8b34o14b8o8b34o14b8o8b34o14b8o8b34o14b8o8b
34o12bob8o8b8o38bo$19bo3bo3bo3bo32bo3bo3bo3b4o8bo3b4o9bobob8o6bob34o
10bobob8o6bob34o12bob8o6bob34o12bob8o6bob34o12bob8o6bob34o12bob8o6bob
34o12bob8o6bob34o12bob8o6bob34o10bobob8o6bob8o36bobo$18bobobobobobobob
o30bobobobobobobob4o6bobobob4o7bo3bob8o4bo3b34o8bo3bob8o4bo3b34o10bo3b
8o4bo3b34o10bo3b8o4bo3b34o10bo3b8o4bo3b34o10bo3b8o4bo3b34o10bo3b8o4bo
3b34o10bo3b8o4bo3b34o8bo3bob8o4bo3b8o34bo3bo$17bo15bo28bo7bo7b4o4bo7b
4o5bobobobob8o2bobobob34o6bobobobob8o2bobobob34o8bobobob8o2bobobob34o
8bobobob8o2bobobob34o8bobobob8o2bobobob34o8bobobob8o2bobobob34o8bobobo
b8o2bobobob34o8bobobob8o2bobobob34o6bobobobob8o2bobobob8o32bobobobo$
16bobo13bobo26bobo5bobo5bob4o2bobo5bob4o3bo7bob9o7b34o4bo7bob9o7b34o6b
o7b9o7b34o6bo7b9o7b34o6bo7b9o7b34o6bo7b9o7b34o6bo7b9o7b34o6bo7b9o7b34o
4bo7bob9o7b8o30bo7bo$15bo3bo11bo3bo24bo3bo3bo3bo3bo3b5o3bo3bo3b4obobo
5bobob9o5bob34o2bobo5bobob9o5bob34o4bobo5bob9o5bob34o4bobo5bob9o5bob
34o4bobo5bob9o5bob34o4bobo5bob9o5bob34o4bobo5bob9o5bob34o4bobo5bob9o5b
ob34o2bobo5bobob9o5bob8o28bobo5bobo$14bobobobo9bobobobo22bobobobobobob
obobobobob5obobobobobob4o3bo3bo3bob9o3bo3b35o3bo3bo3bob9o3bo3b34o2bo3b
o3bo3b9o3bo3b34o2bo3bo3bo3b9o3bo3b34o2bo3bo3bo3b9o3bo3b34o2bo3bo3bo3b
9o3bo3b34o2bo3bo3bo3b9o3bo3b34o2bo3bo3bo3b9o3bo3b35o3bo3bo3bob9o3bo3b
8o26bo3bo3bo3bo$13bo7bo7bo7bo20bo15bo7b4o12b4obobobobobobob9obobobob
35obobobobobobob9obobobob35obobobobobobob9obobobob35obobobobobobob9obo
bobob35obobobobobobob9obobobob35obobobobobobob9obobobob35obobobobobobo
b9obobobob35obobobobobobob9obobobob35obobobobobobob9obobobob8o24bobobo
bobobobobo$12bobo5bobo5bobo5bobo18bobo13bobo5bob4o10b5o12bob8o8b34o12b
ob8o8b34o14b8o8b34o14b8o8b34o14b8o8b34o14b8o8b34o14b8o8b34o14b8o8b34o
12bob8o8b8o22bo15bo$11bo3bo3bo3bo3bo3bo3bo3bo16bo3bo11bo3bo3bo3b4o8b7o
10bobob8o6bob34o10bobob8o6bob34o12bob8o6bob34o12bob8o6bob34o12bob8o6bo
b34o12bob8o6bob34o12bob8o6bob34o12bob8o6bob34o10bobob8o6bob8o20bobo13b
obo$10bobobobobobobobobobobobobobobobo14bobobobo9bobobobobobobob4o6b9o
8bo3bob8o4bo3b34o8bo3bob8o4bo3b34o10bo3b8o4bo3b34o10bo3b8o4bo3b34o10bo
3b8o4bo3b34o10bo3b8o4bo3b34o10bo3b8o4bo3b34o10bo3b8o4bo3b34o8bo3bob8o
4bo3b8o18bo3bo11bo3bo$9bo31bo12bo7bo7bo7bo7b4o4b11o6bobobobob8o2bobobo
b34o6bobobobob8o2bobobob34o8bobobob8o2bobobob34o8bobobob8o2bobobob34o
8bobobob8o2bobobob34o8bobobob8o2bobobob34o8bobobob8o2bobobob34o8bobobo
b8o2bobobob34o6bobobobob8o2bobobob8o16bobobobo9bobobobo$8bobo29bobo10b
obo5bobo5bobo5bobo5bob4o2b13o4bo7bob9o7b34o4bo7bob9o7b34o6bo7b9o7b34o
6bo7b9o7b34o6bo7b9o7b34o6bo7b9o7b34o6bo7b9o7b34o6bo7b9o7b34o4bo7bob9o
7b8o14bo7bo7bo7bo$7bo3bo27bo3bo8bo3bo3bo3bo3bo3bo3bo3bo3bo3b19o2bobo5b
obob9o5bob34o2bobo5bobob9o5bob34o4bobo5bob9o5bob34o4bobo5bob9o5bob34o
4bobo5bob9o5bob34o4bobo5bob9o5bob34o4bobo5bob9o5bob34o4bobo5bob9o5bob
34o2bobo5bobob9o5bob8o12bobo5bobo5bobo5bobo$6bobobobo25bobobobo6bobobo
bobobobobobobobobobobobobobobobob20o3bo3bo3bob9o3bo3b35o3bo3bo3bob9o3b
o3b34o2bo3bo3bo3b9o3bo3b34o2bo3bo3bo3b9o3bo3b34o2bo3bo3bo3b9o3bo3b34o
2bo3bo3bo3b9o3bo3b34o2bo3bo3bo3b9o3bo3b34o2bo3bo3bo3b9o3bo3b35o3bo3bo
3bob9o3bo3b8o10bo3bo3bo3bo3bo3bo3bo3bo$5bo7bo23bo7bo4bo31bo7b20obobobo
bobobob9obobobob35obobobobobobob9obobobob35obobobobobobob9obobobob35ob
obobobobobob9obobobob35obobobobobobob9obobobob35obobobobobobob9obobobo
b35obobobobobobob9obobobob35obobobobobobob9obobobob35obobobobobobob9ob
obobob8o8bobobobobobobobobobobobobobobobo$4bobo5bobo21bobo5bobo2bobo
29bobo5b21o12bob8o8b34o12bob8o8b34o14b8o8b34o14b8o8b34o14b8o8b34o14b8o
8b34o14b8o8b34o14b8o8b34o12bob8o8b8o6bo31bo$3bo3bo3bo3bo19bo3bo3bo3b2o
3bo27bo3bo3b23o10bobob8o6bob34o10bobob8o6bob34o12bob8o6bob34o12bob8o6b
ob34o12bob8o6bob34o12bob8o6bob34o12bob8o6bob34o12bob8o6bob34o10bobob8o
6bob8o4bobo29bobo$2bobobobobobobobo17bobobobobobob4obobo25bobobobob25o
8bo3bob8o4bo3b34o8bo3bob8o4bo3b34o10bo3b8o4bo3b34o10bo3b8o4bo3b34o10bo
3b8o4bo3b34o10bo3b8o4bo3b34o10bo3b8o4bo3b34o10bo3b8o4bo3b34o8bo3bob8o
4bo3b8o2bo3bo27bo3bo$bo15bo15bo12b4o4bo23bo7b27o6bobobobob8o2bobobob
34o6bobobobob8o2bobobob34o8bobobob8o2bobobob34o8bobobob8o2bobobob34o8b
obobob8o2bobobob34o8bobobob8o2bobobob34o8bobobob8o2bobobob34o8bobobob
8o2bobobob34o6bobobobob8o2bobobob9obobobo25bobobobo$obo13bobo13bobo10b
ob4o2bobo21bobo5b29o4bo7bob9o7b34o4bo7bob9o7b34o6bo7b9o7b34o6bo7b9o7b
34o6bo7b9o7b34o6bo7b9o7b34o6bo7b9o7b34o6bo7b9o7b34o4bo7bob9o7b8o6bo23b
o7bo$44bo3bo3bo3bo19bo3bo3b5o4bobo21bobo5bobob9o5bob8o4bobo21bobo5bobo
b9o5bob9o5bobo21bobo5bob9o5bob9o5bobo21bobo5bob9o5bob9o5bobo21bobo5bob
9o5bob9o5bobo21bobo5bob9o5bob9o5bobo21bobo5bob9o5bob9o5bobo21bobo5bob
9o5bob8o4bobo21bobo5bobob9o5bob8o4bobo21bobo5bobo$43bobobobobobobobo
17bobobobob7o2bo3bo19bo3bo3bo3bob9o3bo3b8o2bo3bo19bo3bo3bo3bob9o3bo3b
9o3bo3bo19bo3bo3bo3b9o3bo3b9o3bo3bo19bo3bo3bo3b9o3bo3b9o3bo3bo19bo3bo
3bo3b9o3bo3b9o3bo3bo19bo3bo3bo3b9o3bo3b9o3bo3bo19bo3bo3bo3b9o3bo3b9o3b
o3bo19bo3bo3bo3b9o3bo3b8o2bo3bo19bo3bo3bo3bob9o3bo3b8o2bo3bo19bo3bo3bo
3bo$42bo15bo15bo8b9obobobo17bobobobobobobobob9obobobob9obobobo17bobobo
bobobobobob9obobobob9obobobobo17bobobobobobobob9obobobob9obobobobo17bo
bobobobobobob9obobobob9obobobobo17bobobobobobobob9obobobob9obobobobo
17bobobobobobobob9obobobob9obobobobo17bobobobobobobob9obobobob9obobobo
bo17bobobobobobobob9obobobob9obobobo17bobobobobobobobob9obobobob9obobo
bo17bobobobobobobobo$41bobo13bobo13bobo6bob8o6bo15bo15bob8o6bob8o6bo
15bo15bob8o8b8o8bo15bo15b8o8b8o8bo15bo15b8o8b8o8bo15bo15b8o8b8o8bo15bo
15b8o8b8o8bo15bo15b8o8b8o8bo15bo15b8o6bob8o6bo15bo15bob8o6bob8o6bo15bo
15bo$81bobo13bobo13bobo13bobo13bobo13bobo13bobo13bobo397bobo13bobo13bo
bo13bobo13bobo13bobo13bobo13bobo!
