x = 294, y = 277, rule = B12/S28
4o12b4o236b4o12b4o$o2bo12bo2bo236bo2bo12bo2bo$o2bo12bo2bo236bo2bo12bo
2bo$o2bo12bo2bo236bo2bo12bo2bo$bobo12b2obo236bob2o12bobo$2bob2ob3o5bo
3bob4o5b2ob4o14b2o9b8o9b2o2b2o9b4o13b6o42b6o13b4o9b2o2b2o9b8o9b2o14b4o
b2o5b4obo3bo5b3ob2obo$2bo2bobobo5b2o4bo2bo5bo30b2o2b2o2bo4b3o2b2o2b2o
2b2o4b2o2b5o2b2o2b3o2b3obo8b2o4b2o8b2o4b2o8bob3o2b3o2b2o2b5o2b2o4b2o2b
2o2b2o2b3o4bo2b2o2b2o30bo5bo2bo4b2o5bobobo2bo$2bobob4o5bo8bo5bo3bo18b
8ob8ob4ob4o4bo2bob4ob6o8b3o3b3o42b3o3b3o8b6ob4obo2bo4b4ob4ob8ob8o18bo
3bo5bo8bo5b4obobo$2bo2b2o17bo6bo4bo25bo8bob5obo6b2o6bo3bo3b2o9bo4bo6bo
8bo6bo8bo6bo4bo9b2o3bo3bo6b2o6bob5obo8bo25bo4bo6bo17b2o2bo$bo14bo8bo5b
2obobo2bo4b3o7bo4b4o2b5ob5ob3o4b3ob2ob2obob2o7b2o6bo4b2o4b2obo4bob2o4b
2obo4bob2o4b2o4bo6b2o7b2obob2ob2ob3o4b3ob5ob5o2b4o4bo7b3o4bo2bobob2o5b
o8bo14bo$b2o4b2o7b2o8b3o2bo14bo5bo6bob2obo5bo3bob3obo2bob4o4bobo3b2obo
3bo6b3obo8b3o2b3o8b3o2b3o8bob3o6bo3bob2o3bobo4b4obo2bob3obo3bo5bob2obo
6bo5bo14bo2b3o8b2o7b2o4b2o$3bo5b2ob3o3b2o7b2o2bob2o18bo3b2ob5o5bo3b5o
8b2o2b5o5b2o3bo14b2o2b2ob4obo8bob4ob2o2b2o14bo3b2o5b5o2b2o8b5o3bo5b5ob
2o3bo18b2obo2b2o7b2o3b3ob2o5bo$3b2o5bobo2b2o2bo9bobo10bo2bobo4bo4b2o2b
o2bo5bo4b2o6bo3b2o4b2o4b2ob2o2bob2o11bo5bo20bo5bo11b2obo2b2ob2o4b2o4b
2o3bo6b2o4bo5bo2bo2b2o4bo4bobo2bo10bobo9bo2b2o2bobo5b2o$5b5o5b2obo9b2o
bobo2b2o3b7o8b3o2bo8bo4bo7bo5b2o2bo5b4ob2ob3o9bobobo5bo2bob3o2b3obo2bo
5bobobo9b3ob2ob4o5bo2b2o5bo7bo4bo8bo2b3o8b7o3b2o2bobob2o9bob2o5b5o$9bo
9b2o8bobo9bobo2bo4bo7b6o6b2ob3o11bob4obo2b2obo3b7o7bo3b6o3b5o2b5o3b6o
3bo7b7o3bob2o2bob4obo11b3ob2o6b6o7bo4bo2bobo9bobo8b2o9bo$4b5o4b2ob5o8b
ob5ob3o3bo3b2ob2obobo4bob2o6bo4b10o3bo6b2o2bob2obobob4o9b2obo6bo3b6o3b
o6bob2o9b4obobob2obo2b2o6bo3b10o4bo6b2obo4bobob2ob2o3bo3b3ob5obo8b5ob
2o4b5o$3obob3o2b2o2b2o4bob3ob4o3b3ob2o3bo4b4obo7bo13bob2o2b2o3b8o3bobo
b2obo7bo8bo2bo2bo2b2o3bob2obo3b2o2bo2bo2bo8bo7bob2obobo3b8o3b2o2b2obo
13bo7bob4o4bo3b2ob3o3b4ob3obo4b2o2bo3b4obo17b4o$obobob2o2bo5b2ob4o3b4o
3bo4bo3bo7bobo2bo14b2o5b2o6b4o4bo3bobob4o6bo7b3obo5b2o4b6o4b2o5bob3o7b
o6b4obobo3bo4b4o6b2o5b2o14bo2bobo7bo3bo4bo3b4o3b4ob2o4bo3bo2b2o10b2o4b
o3bo$obob5obo5b2o3b2ob4obo6b3o3b5ob2obobo3bo8bo3b4o5bo2b3ob2obo3bo2bo
2bo2bobobo4bo5b2o3b2obobo2bo14bo2bobob2o3b2o5bo4bobobo2bo2bo2bo3bob2ob
3o2bo5b4o3bo8bo3bobob2ob5o3b3o6bob4ob2o3b2o3bo3b2o5b2o7bob4o$2ob2o2bo
2bo4bo3b2obobo3b2o6b2o4bobob3obob5o5bo3bo3b2o2bo4bo2bo2bo3bo3bo2bo3bo
2b2o7bob5o3b2o5b2o14b2o5b2o3b5obo7b2o2bo3bo2bo3bo3bo2bo2bo4bo2b2o3bo3b
o5b5obob3obobo4b2o6b2o3bobob2o3bo2b2ob3obo5b2o3b2o$bo4bo8b2o2b4obo3bo
9bo4b5o4b2ob2obo8bo2b2o2bo4bo2bo12bo4b2obo5b5o8bo2bobobobo12bobobobo2b
o8b5o5bob2o4bo12bo2bo4bo2b2o2bo8bob2ob2o4b5o4bo9bo3bob4o4b2obo2bo8b3o
2bo2b3obobo2bo$10bo4bo2bob2o2b2o21b2obobo4b2o8bo3bo3bo4bob2o11bo5bob2o
4b2ob2o8bo4bo2b2o12b2o2bo4bo8b2ob2o4b2obo5bo11b2obo4bo3bo3bo8b2o4bobob
2o8bobobo10bobob2o3bo6bobo6b2obo5bobobob2o$10bo4b4o2bob3o2bo9bo3bob3ob
o9b3o9b2o3bo4bobo6bob2obo14bo4bo4b6ob3ob2o12b2ob3ob6o4bo4bo14bob2obo6b
obo4bo3b2o9b3o9bob3obo3bobo2bo7bobob3o7b2o2b3o5b3ob2o6b2o$5bo4bo4b3o5b
obo2bo12b2obobob4o7b2o10bo4bo3bob3o4bob2obo8bo4b2o5bo3bobob2ob2obobo4b
4o4bobob2ob2obobo3bo5b2o4bo8bob2obo4b3obo3bo4bo10b2o7b4obobob2o14bob2o
9bob2o2b2o5b3o2b2o5b2o$4bobo8b2o6b5obobo5b2obo3b3o3bo8bo10bo4bo5b3o6b
2o13bo8b2ob2o3b2obo3bo4b2o4b2o4bo3bob2o3b2ob2o8bo13b2o6b3o5bo4bo10bo9b
o2b3o17b2ob2ob3o4b2ob2o8bo7bo6b2o$bo2bo5bo9bo8b3o4bobo2bo7b2o9bobo8bob
2o5bob4o12b2o3b2o6b2o2bobo6b2obo2bo3b2o4b2o3bo2bob2o6bobo2b2o6b2o3b2o
12b4obo5b2obo8bo11b2o7bo8bo4b2o2bo3b2o4b2o12b2o6b2o5bo$b2obo2bo3bo8b2o
7b3o3bo2bo2b4o3bo9bo8bo6bo3bo2bo15b9o4bo2bobo8bo3b3o3bo6bo3b3o3bo8bobo
2bo4b9o15bo2bo4bob2o4b3o13bo7bob3ob5ob4obo5b2o2b2o16b2o3b2o$2b3o2bo2bo
bo8bo7bob2o3bo8b3o8b4obo5bo4b2o4b2obo2b3o10b2o2b2obo3b3o2b3o7bob2o2b4o
b2o4b2ob4o2b2obo7b3o2b3o3bob2o2b2o10b3o2bob2o4bo2bobo5bo9b4o3b3ob3o2bo
bo9bo5bo5bo3bo12bo3b2o$7bo4bo7bo7bob5obo9bo26b2ob2o3b2ob3o8bo3b2o4bobo
5b4o7b2o4bobo2bo4bo2bobo4b2o7b4o5bobo4b2o3bo8b3ob2o7bobob3o11bobob8ob
6obob5o3b2obo8b5ob2o11bo2bo6bo$7b2obo9bo6bo3b3o11b2o4bobobobo3b2o9b3o
2bob2o3b2o9bo3bo6b2ob4obob2o7bobob5ob2o2b2ob5obobo7b2obob4ob2o6bo3bo9b
2o3b2ob10o7bo5b4o2b4o4bo2bo5b2ob2ob2o10b3ob3o8bo3bo2bo5b2o$6b3o3bo2bo
3bob3o3b5obo7b3ob3o3bobobobo4b3o24b3o3bo3b2o3b2o3bobo5bo7b4o2bobobob2o
bobobo2b4o7bo5bobo3b2o3b2o3bo4b2o4b3o2bob5obo2b3o6bo3bo3bo3b3o18bo4bo
5b2obo3b3o7bo4bo3bo$6b2o4bo2bo4b2obo3b4o4b2o5bo4bo3b3o8bo2bo12bo11b2o
8bo3b2ob2obo4b2obo7bob5o10b5obo7bob2o4bob2ob2o3bo4bo3b2o4b10obo3bo4bo
9b5o4bo10b2o13b2o2bob3o18b3ob2o$6bo5b2o2b3o3b2o4b2o3bob2o4bob2o2b2o7b
2o4bo2b2ob2obo19b5ob4ob2ob2o2b3o5b2o10bobo12bobo10b2o5b3o2b2ob2ob7ob3o
3bo3b5obob2o3bo4bo7bobobo4bo11bo10bo2b2o6b4o5bo7b3o8b2o$6bo5b2o3bo3bob
o4bo4bo3bo4b4obo7bobo4bo2bobo4b2o5b3o2b2o6bob2ob2o4bob2o10bo9b2obo14bo
b2o9bo10b2obo6bo4bo4bo3bo2bo3b2o6b2ob5o3bob7o23b2o3b2o7bo5b2o5bo2b2o4b
o2b2o$6b2obo4bob2obob3o3bobo3b2o3bobobob2o2b2o5bo2bo3b2ob2ob2o2bo8b5o
4bobobobo6bobo4bo17b3o3b3o9b2o22bobo6bob2o6bo3b3obob2o5bo3bob7o8b2o3b
2ob2o8bo3b2obo6bo3bobo12bo2bo$8b3obobob3obo5b2o6bo18bob4o3b2obo2b2o2b
7o6b2o4b7o4bo19bo4b3o6b2o10bo11bo12bo3b4o8b4o8b3o6bob2obo4b4o8b4ob2o
11bobo4bob3o2b2o6b2o5b2ob3o$10bo7b3o3b2obo5b2o2b2o8bo3b4o2b3o6bo2bo2b
2obo9b2o12b3o5bo3bo12bo9b3o10bo3b3o5b2o8bo3b4o2bo9b2obo3b2o3b4obo3bo4b
5o2b2o8b2o2b3o2bo18bo2bob2o12b2o2b2o5b2o$9b2o7b2o4b2o8bobo9bo4b2ob2o6b
2o2bob2o2b2ob2ob2o2b2o2bo12bo3b4obo9b2o2b2obo8b2o7b2o2bo3bobo4bo2bo6b
2ob3ob3obo3bo4b10o2b2ob4o3bobo4b3o4b2o6b5obo2bo6bo10bo3bob2ob2o3b2obo
6b2o5b2o$9b2o8b4o7b3ob2o9bo5bo2b3o7b3o2bo3b5obo4b3o12bo3bob4o9b3o3b3o
4bobo11b2o3bo2bo4bobo5b2o2b3o3bobo4bo6b3o4bob3o5bo3b2o12b4o3b3ob3o2bo
4bo3bo4b4o3bo2bo2b2o9b2ob3ob2o$2b3ob4obo8bo4bo3bob3obo10b2o4b5o5bobo3b
5o4bo9b3o3b2o5b3o9bo6bo2bo3bo7bobo4bobo5b2o2bo4b2o5bo4bo3bobobo2b2o2bo
6bo5b2o8b5o3bobo7bob5o3bo4bo9bo3b2ob2o2bo2b2o3b2o6b4o4b2o$2bobobob4o4b
obo6bo3bo3bo6bobobob2obo2bo2bobo8bob3obo14bo2b3o2bo9b4o3b2o4b2obo11b2o
bo13b2obo3bobo4b3o17b3o3b3o7b4o4bo2b2o3bo12b4o4b5o3bo3bo5bo2bob6o5bo6b
3o4b3o2b2o$5bo4b4o2bo6b2obobob2o6bo2b3o2b4o5b2obo7bo3bo17bo3b3o5b2o3b
5o4b2o2b3obo11b2o14b2obo11b2o6b3o8b3o2b3o4bo5b2o2b2o2b3o7bobo6bo2bo3b
3ob2o6b2o5bo2b6obo12bobo6b2ob2o$2bo5bob4o6bo5b3obo7b3obobo11bobo2bo4bo
3b3o15b2o2b2o14b3o3b2obobo9b5obo10b2o9bo5bo3bobo3bo7bo5bobob2o9b2o2bo
9bo5b2o6b2o5b5o6b2o7bo3bo3b2o10bo2bo$2bo3b3ob4o4bo3b8o8bob2ob7o3b4ob7o
2bo2bo8b2o7b2o2b2o6b2o6bobob3o7b2o8bo13b2o4b2ob3o4bo5bo4b3o6b2obo4bo
11b2obo3bo7b2o5b3obob2o2b8o4b4o7bo3b2o3b3o8b2o2bo$4bob5o2bo2bob4o5bo
17b3ob7o5b2o4bo2bo7b3o5bobo3bo8bo6b5ob6o2b2o7bo3bo5bo19bo5b2o5bob2obob
2ob2o4bob2o6b3o2bo2bo7bobo6b4o6b3o2b3o3b2o9bo4bo4bo7b2obo2bo7b3o$4bobo
2bo5bob3o2bo5bobo7b4o2b2o4b4ob2ob2o3bo4b4o6bobo5bob2o2bob3o3bobo4b3o3b
2o3b4obo8bo2b2ob3o5bo3bo2bo6b2o4b2o7bobobob2ob2o13b5obo2bobo3b5o3b6ob
2o9b3o2b2o2bo2bo3b2o3bo6bo7b3o2bob2o4b3o$4bo4b2o7b2o3bo3b4obo5bo6bo2b
2o5b2ob2o26bo2bo2b5o3bobo4bo4bo5b4o11bo3bobobo9b2o7bob2o2bobo4bob3ob3o
3bo11b4ob2ob2ob3o7bo7b4obo8b2ob6o2b2o2bo5b2o4bo8b2o3b4o$4bo4bo9bo3bo3b
2o2b4o4b3o2bo2b2o7bo7bo7bo10b2o4b4o9b2obo2b2ob2o5bo4bobo8bo3b5o5b3o11b
2o3b2o4bo4b3o3b2o5b3o4b3ob3o5b2o3b3ob2ob6obobo10bo5b2obo3bo4b2o5bo8b2o
6bo2b2o$3bo16b2o4b4o2b2o4bob2o3b3o7bo2b2o3b4o2bo14bobo2b2obo2b2o3b3ob
2obo3bo6bo20bobob2o2b3o12bob2o2bo4b2ob6o2bo5b2o4bob8o7b2o2bo2b3obo8bo
19b3o4bob2o3bo10b5ob2o3b3o$3b3o3b2o2b3o5bobobobo2b2o7b3o2bobo6b2o3b3o
3bobo11bobo3b2o2b5obo9bo2b2o10b2o9bobo7b3ob2o4bo6b2o3bob2obo5b2o3bo2bo
2bob3o5b2ob2ob3obo6b2ob4o4b2o18bobo14b4o5bo5bo7b3o2b5o$5bobo5bo2b2ob3o
bo2b2o10b2obob5o3bob4o2b2obob4o4bob3o2bob2obo4bo4bo9b2o6bo6bo7b2o8bob
3o3bo4bo4bo2bo4b2ob2o10b4ob4ob4o2bo2bo6bo7bo3b6o2bo3bobob2o3b2o4bo11b
2o2bobo2bo4bobo2bo13bo$6b2o5bo2b3o4b2o2bo11bob2ob5o4bo3b2o2b5o3bob4o3b
2ob2o5bob3obo6bobobob2o2b3o5b3o5bob4o8bo3b4o7bo6bo3b2o9bo4bobob2ob2obo
4bo3b2o8bo2bo4bo8bo3bo4bo10bob3ob2o2bo2bob2o3b2obo15bo$8b2o4b3obob4o
14b2obo4bo6bobo2bo6b2o2b2o3bo3b2o2bo5b3obo3bo5b4obobob4o4bobo5bo2b2o9b
2o2bob2obo5bo19bobob2ob3obobo3b2o3bo3bo3b3o4b4o19bo2bo10b2o7b4o2b2ob3o
b2o2bo10b5o$7b3o5bob2obo2b2o12b2o2b2o4bo9b2o3b5o2bo2b2o4bo2bo4bo6bobo
2b3o8bobob2o5b2obo3bo5bo16bo10bo6b3o6bo2bob2o2bo3b5o4bo6b2o4bob2o9b2ob
5o3b2o5bob2o4b3ob4o4bo3b7o2bo12b3o$7bob3ob5o2b4obob4ob2o5bobo12b3o3b2o
b2o2b3obo3b3o3b2ob2o7bob3o11bo3bo8b2o3bo2b2o6b2o10b3o16b2o5bo3bo2bo2bo
4b4o4bo2bo4b2obob3obo4bob4o7b4o4bobo10b4o4b4o2bo3b3o2bo8b2o$2b3o2b2o2b
2o5b3o3b2o2bo2b2o5b5o5b2o2b2o6b2ob2o4b2o5bo2b2obobo9bobob2o9bo3bob4o5b
2obob4o5b2o8bob2obo4b2obo5b6ob3ob6o10b6o2bo7b5obo4b2o2b2o8bo5b4obob5o
10b2o2b3o3bo4bo$2bobo2bo4bo5bo2b2ob2o2bo4bo15b9o2b2o3b2o2bo5b2o2bo14b
3obobo6bo4bob2o2bob4o3bob2o6b2ob2o4b2o11bobo5b2o3b3o4bo14b2o6b2o3bo3bo
b2obo5bo10bo7b2o3b2o3b5ob2o5b7o2bo2bo3bo4bo3b3o$2b2ob3o4bo5bo3b2o4bo4b
o2b2o2b2o5b3o8bo6bob7ob2obo8b2obo9bo6bo4bo5b2o2b3o2bo2bo2b2obo5bo2bo2b
o10b2o5b2o4bob2o2b2o6bo7b2o6bo4bo2b2ob2obo6bob2o4bo8bobo3b2o2bobo2bob
3o4bo6b5ob2obo4bobob3o$2bo4bo5b2ob3o10b2o2bob2o2b4o6bo8b2obo6bo3b2o2bo
bo4bob2o2b2o2b2o5bo6bo2bobo3bob3o2b2ob2o2bo2b3ob5o2b4o11b3o4b2o4b3o4b
6ob2o5b3o6bo5b3o4b2o6b4o4bo2bo3b2o2bo3b3ob3obo2bo11b9o2bo2bobob2o$15b
4obo6b2ob2obo7b3o24bo4bob2o6b2o7b2o6bo6b2o2bo5b6o2bobobobobobobob2o2bo
2bo13b2o9bobo2bobobobobo2bob2o2b2o7bo6b3o3b2o8b2o4b11o5bobo4b4o3b2o6bo
bo2b2o3b4o2bob2o$16bo4bo4bobob2ob2o6b3o4b3obo5b2o6b8obobo4bo12bo3bo3b
3o3b2o5bo3b3ob4ob2o5bo7bo7bo9b2obo4bo2bo2b4ob8o2bob2o2b2o3bo5b2o2bo2bo
bo7b2o14bo7bo2b4o10bo2bo6b2o2b6obob3o$10b3o8bo4bob2ob3o11b3o2bo5b3o8bo
bo2bo4bo4bo7b6obobo3bob4obo4bo2b2obobo2bo3bobobo5bo4bobo3b3o5bo3b2o5bo
2b3o2bobo2bo3bo2bo8b2ob2o3bo4b2o2b5o32b3o8bobo2b2o4b4obobo2bo3b3o$11b
2o13bobo3b8o3bo2bo4b2o3b3obo6bo15bo2b4obobo3b2o4b4o3bo10bo4bo3bo3bo3b
4o7b3obo7b2obo5b3ob2o5b4ob2o3b2o6b2obo4bo6bo3b3o6bobo13b6o3bob2o9b4ob
2o2b2o3b4o2bo$3bo7b2obo5bo6b3o2b2o11b3o4bo3bob4o11b2obo7bobo2b2o8b4o2b
o4b2o3bo7bob2o2b5obo2b5o5bo5b2o4b4o6bo2b3o5b4ob6o8bob2obo3b6o4bobo11b
2obo6bo4bob4o2bo7bob2o3bo4bo2bo3b6o$3bo28b2ob5o6b2o4bo3b2o3b4o5bob4o8b
obo6bo8bo2b2o3b2o11bob3obo4b3o3bob2o3bo2b3obo5bo2b2o20b3o10b2o4b2ob2o
3bo6bo2b2o5b3o3b3obobo7b8o2b2o3b2obo2bo3b2o5b3o5b3o$14bo3bo3b2obobo2b
2ob2o2bo2bobo5b2obo5bo3bob2o6bo2bobobobo4bo4b2o3b3o3bob3o4bo4bo5bo5bob
o4bo7bo4b2obobo2bo3bob2o4bobo5bo3b3o3bob2obobo6b6o18b3o7b3o5bob3o5bo3b
ob4o4bobo2bo2bo4bobob3o2b5o$3bob4obo4b4o3b4o6bo6b6o5bo7bo2b2o7b6ob2o6b
o6bobobo9bo3b2o8b2o6bo7bo3b2o6bobobo2bo3bob2o2bo7bobob2o2bo4b2ob2o6b6o
bo11bo6b5o7bo3b2obo2bo4b3o3bo3bo3bo2b4o2bo4bo9bo$3b2ob2o5b2o10b2o3bob
2o4bo4bo6b2o6bo2b2o4b6o3bobo2b3o8b2ob5o5b2o3b4o7bo19bo2bo3b2ob5o4b2o
13bob2o2bo6b2o7b4o4bo6bo12b2o2bo4bo4b2obobo5b2o2bob2obo4bo2bobob2o4bob
obob2o3bo$4bo2b2o3bob2ob4o3bo8b2o3bo4bo15b3o2bo2bo2b2o4bob4o9b2o4b4o4b
3o3b3o5bobo4bo9bobo2bo5b2o2bobo18bobob2o2b4o13bo2bobob4o2b2ob2o30bo4bo
12b7o7bob2o3bo2b5o$6b2o4bob2o3b2o2bo5bo5b2ob3o16b4obo4b2o8bo4b2o6bo3b
5o2b4o2b2ob4o5bobo8b2o6bo2bo10b4o11bo3bo4bob2obo4bo7bo3bo3b2ob4o7b2o
26b7o13bo2bo2bo6bo2b2obobo3b3o$3b6o2b2obo7bo5bo3bob9o13bo5b2ob2ob3ob3o
3bo3bo7bob3o3b3o8bo2bo5b2ob2o3bo4bo4bo4bobo4b3ob2ob2o2b2o5bo4b2obobob
5o2b4o4b3o8bo3b10o3bo5b2o3bobobo6b3o17b2o2bo2bo6bo2bob2ob4o$3bo2b5o5bo
5bo5b2ob2obob2o18bo5bo2b2o5b3o3b2o12bo4bo2bo2b2ob2obo2bo8b2ob2o5bo8bo
8bo3bo7bo3b3o3b6o4bo5b2o6b4o7bo7bobob2o2b2o5b2obob3o3bo9bo13bobo3bo6b
2ob3o2bo$2b3ob5o4bob2obobobobo2b4o4bo3b2o13bobo6b6ob2ob2ob2o2bo9b2ob3o
bo3bob2o5b2obo2b2o3b4o12bo13bo3b3o3bo3b2o2bo3b2o2b2o6b2o6bo2bo21bo3bob
obob3obobo3b2ob2o9b4o9b3o5bo2b3o4bo3b3o$2b2ob3o2bo4b4ob2ob3o3b3ob2ob2o
3b2o9bo4b4o4b3ob2o2bob2ob2obo5bo3b3ob2obobo2b2o2b6ob6o5bo28bo2bobobo5b
2o2bo2b2o4bo3b3o7b2o2bo17bo3bo3bo2b4ob6ob3obo5bo3bob2o9b3obob4o3b2o3b
2obob3o$2bobo2b4o6b2o2bo4b2ob4o10b2ob3o9b2o6b4o5bo3bobo9bobob3o4b2o2bo
3bob3o10bo4bo7bo5bo9b2ob2o6bo3bobo2b2o4bo3bo2b2o4b5o12b5o3bobo3bobob6o
3b3o2bo10bo4bo8b3ob2o2bo5bo2b2ob2o$2b3o2b4o6bo3b4o2bob2o4bob2o3b3o2b6o
5b6o2bo3bo7bo2b2o8bo5bo5bob3ob2o6b4o4bo8b2o8bo5bo4bo2bo7b3o2bo12b3o7b
2o16b3obob2o4b3ob4o6b2o2bo5bo3b2o4bob2o4b4ob3o2b2o4bob2ob2o$7b4o6bo7b
6o4b3o4bo6bo10b3obobo11bo4b2o6bobo9bobo3b2o2b6obo5bob2o4b5o4bo2bob2obo
3bobo12bob3o12bo6bo4b4o7bo3bo9b4o3b2o7b3o5b2o3bo4b3ob2o9bo2b2o11b3o$6b
o3bo2b3o2bo4bobo2b2o7b2ob2o5b2o12bob4o4b2o4b2ob5o6bo3bo8b2obo2bo2bo3bo
b2o5b5o3b2o2b7obo2b2o5b2o2b2o10bobo5bob2ob2o12b3o5bo4bobo3bo5bo5bob2o
6bo5b2ob2obo3b2o2bo5b2o4b2o15b3o$6bo3b3ob2o2b2o9bo7bo4b3o2bo6b2o4b2o7b
4o3b3obob3o8b2obobo4bobobob2o2bo4bo8bobob2ob2o9b2o9bo3bo7bo3bob3ob3obo
16b2o6b2o3bobo4bo3bo6b2o9bo3bo2bo3bo2b2o2bobo4bo3bobob3o2bobo$5bo4b2o
6bo3b5o3b5o2b2o5bo13bo2bo7bobob5o2b2o5b2o3bob6ob2o7bo2bo3bo3b4o2b3ob5o
9b4o7bo2bobo5b4o5b4o2bo4b4o3bo4b2o5b7o2bo2b2ob4o4b2obo14b3o3bobob2ob2o
13bobob2ob2o3b2o$3b3o4b2o3b5o2bo2b3obobobobob4o6bo3b2o3b2obob4o4b3o9bo
4bo5b3o4b2obo4bobo2b2o3b3o5bo5b5o5b2o2b3o6bo5bo4bob2obob3o2b2o3bo5b2ob
4o11b2o7b2ob4ob2o3b2o10b3obobob2o3b2o3b2obob3ob2o6bo2b3o3bo4b3o$3bo2b
2o3b2ob3ob2o2bo3bo4bob4ob4ob2o2bo3bob2o3b5ob3o6b4o2b2o5bo3bobobo4b2o6b
obo5b2ob2o4b4ob2o3bo4b3obo5bo13bo2bob2o2b2o5bob2ob2ob2ob3obo6bo16bobob
7o8bo4b4ob2obo2b2obob4ob2ob3o5b3o5b3o2b5o$4bobo3b2o3b2o2b2obo3bo14b5ob
o4b3obo2bo2b2obob2o3b6obo6b2o5bo5b2o3b3o8b2ob2o4bobobobo5b3ob2o23b2obo
5bo3b2obo8b2ob2o11bo2b2ob2o2b2o9b2o6bo3b5ob3o2b5o2b2o3bo3b2obo4bo6bob
2o3bo$4bobo3b3o8b2o2bo7bo8b4obo5b4o2bo2b3o4bobo4b2obo6bobo5bo4b2o2b4o
7bo2b3o5bo13b3o16bo6bobo3bo7bob2o7b2obo4bob3o8bobo8b4obo13b2ob3ob2o4bo
bo5b2o4b2o4bobo5b2o4bo$4bo7b2obobo3bo3bo6bob2o4bob2o5bo4bo2bo3bobo7bo
4b2obo12b3o5b5o9b2ob2obo4bo9bo5bo10bo3b2o6b2ob3o4bob3ob2o10bobo3bo3bo
3bo6bo7bo3bo2bo12bo2b2o4b2o2b7o2bo4b2o9b2o6b5o$4bobo2b3o5b2o3b5o5b2obo
3b2obob2ob4o4bobo5b3o10b4o2b2obo2bob4o5bo15bob4obobo4b2o4bo9bo6bo11b2o
8b4ob2obo2b2o4b2obo3bobo3b2ob7o11b5o15bo6bo2bo5b2ob2o2bob2o3b2o7bo4b3o
$3bo11bob2o5bob3o2bo3bo18b2obo5b2obo9b4o3bobo3bo2bo5bo10b4ob2obo10b3o
10bo2bo6bobob3o7b2o3b5o6b5ob2o10b2o4b2o16b3o3b2o15bo5b2ob3o3b5o2bob2o
3bobo6b2ob2o$2bo5bo4bo2bob2obob9o3bo8b2ob2o8bo5b3o8bobo3b2obobob3o2bo
6b3o6bo3bo3b4o8b3o7b2o6bo4bobo7bo8bo14b6o9bo5bo17b2o20bo7b3o5b4o3b2ob
2o3bo7bo$2bo6bobo4b2o2b3ob4o7bo10b2o8bobo4b2o13b3o2bobo3b3o5bo4bo5bo3b
o4b3o4bo7bo3b3o4bo2bo3b4obo8b2o4bo2b2o10bobob2o5bo5bo3bo14bo7bo12b2o
12b2obo3b2o4bobob2o2bo7bo3b3o$2bo7bo5bob3ob2o11bo4b2obo4bo6b2obo4b3o
12b5ob2o6bob2obo10b5o3b4o3bobo5bobo2b2o6bo2b2obo3bo6b2o8b4o2bo4bo2bo7b
o2b2obo4bo9bo10b5o10b2ob2o5bo5b2o13bob2ob2o3b5obob3o$2b2o5bobo11bo15bo
3b4o2bobo4bobo5b2o9bobo2bo15b2o3bo6b5o2bo4bo2bobo3b2o2bobo7b2o7bo3b2o
3bobo8bobobob5o2bo9bo3bobo2b2o2b7o6bo7bo7bo2b2ob2obo2bo6b2o14bo7b3o2bo
b2o$3b2o4b3o12bo3b4o3b2o2bo4b2ob4o4b3o4bobo9b3o4bo3b2o3bo5bo4bo9b2ob2o
4bo2bo2b5o2b2o8b2o7bo3bo4b2ob3o4b3o3b9o7bo6b2ob5obo2bob2o7bo7bobo5bo5b
2ob2ob2o15bo3bo2b2ob2o7b2o$3bo6b3o9b3o3bo2bo3bo12b2o6bobo3bo2bo7bo7bo
3b2obobobo2b2o14bob2obo3bo6b2o4bo2b5o2b2o9bo2bo2bob2o6b2obo6bo2b4o2b5o
6b5obo4bobobo5bo8bobo7b2o4b2o2bo8bo3bo4bo4b2o4b2o8b3o$3bo5bo3b2o13b9o
3bo3bo10b4ob3o2bo7bo3b3o2bobo2bo4b5o2b2o10bob5o2b2ob2o2b2o3bo5b4ob4o7b
o2b4ob7o2bo12bo5b3ob2ob2o5b2o4bobo2bo14bob2o6b2o4b4ob2o8bo11bo4b3o8b3o
$3bo3bobo3bo6b2o3b2o3b2o3b2o3bo7bo3bob2o6b3obo4b2o2b3ob2ob3o2b2obo2b2o
2b2o10bo4bo3b2o8bob5o3bob3obobo3bo4bo6bobobo2bobobo9b7o2bob2ob7o5bo2bo
12bobobo4bo7b4ob2o4bobo3b3o5bo9bo3bo$4bo4bo4b2o7bo3b3o4bob2o3b3o3b2obo
3b2ob2ob2o4bo3bo4b2o2b2o6b4obobob3o15bo8b3obo2b2o2b5o2b6o2b3o3b4o3b5o
2bo2b2o13b3o2bobobobo4bo4b4o12b2obobo5bo9bo4bo4bo4b2o16bo2bo5b2o$5bob
3o3bo8b4o3b4obo3bobob2o3b10obo3b2o2b2obo4bo5bo6bobob2ob4o4b2o5b2o2bo9b
7o3bo7bobo5b2o6bob4o6bo2b4o3bo6b3o3b2o3b2o7b2obo8b2obob7o6bo8bo4b2o9bo
15b2o2bo7b3o$5bo7bo8b2obo4b3obo2b4ob5o2b3o8bo2bo2b3o5bo5b2o2b3o11bo3b
2o6bo2bo6b2o12b2o6bo7bo12b2o8b3o2b2o7b2o3b3o10bo3bo8bob2o3b3o8bo3b3o3b
5o11bo3bo13bobo4b5o$5bo6bo9b2o2bo3b3obobobob2o4b2o3b3o9bo8b5obo4bo6b3o
3b4o10bo2b2ob2ob2ob3o9b2o5bobo3b2o2b3obobobobobob2o2bo2bo3bo3bo6b2o2b
2o6b7o11b5o5bo9b5o7b4o6bo2bo9bo9b2o4bo$4bo5bobob4o5b3o5bo2bob3o2bo2b2o
18b6o2bobo2b3o4bo3bo17b2obob5obob2o2b2o5bo2bobo5b3o3bob2o4bobo2bo6bobo
3bo2b2o3b2obob2o11b2o11bo4bobo3bo4bo4b2o7bo6b5o6b3o3bo7b2o6bo5bo$4b3o
11bo11b3o5b6obob5obobobo7bo2bobobo2b2o5bo2b2ob2o3b2o10bo3bobob5o3b2o4b
4o2b2o12b5ob2obobob2o4b4ob2o2b2o6bobobo3bo8b5o4bobobo3b3o14bo7bo6bo2b
2o7bo9b2o14b5o$6b3o2b2obo3b2o9bo2bo4bo4bo10bo3b2o3b2o7bo9b2o2bob5ob2o
4b3o3b3o14bo8bobo16bo4bob2o3bo12b3o2bo2bo15bobob2o4b5ob2o2bo3b3o8bo9bo
3bo2bo14b4o19b3o$3b10obo5b2o3bo2b2o2bo5b3ob2o5bo3bo3b2ob4o27bo2bo4b3o
3b2o14b4o6b2ob2o6b4o4b2obob3o9b3obo4b2o2bobo12bo7b2o4b2obob5o4bo11b2o
5bo3b3o2bo4bo9b2o3b2o14b2o$3bo6bob4o4b3o3b2obo6b4ob2obo10bob2o7b2o8bo
6bo11bobo2b2o4bo3b4o6bobobo3b3obo2bo4b2o4b3o2bo5b3o2bo5b5o2bob4ob2o10b
o9bo4bob2ob2obo5bo6bobobobo5b2o4bo2bo3bob2o11bo9bo$3bo6b3ob2o4bob4o2bo
3b2o5bobob3o9bobo8b3o5bobo2b2o14b2o13b6o8b5ob10obo3b2o2b3o5bobo2b2o3bo
5b4o3bob2o4bo5b2o6b3o4b3o2bo8bo11b4o3b2obo2bo2bo3b4o19b2obo7b3o$3b9o4b
o3bobo4b5o6b2o3b3o3bo5bobo8b2obobo4bo2b2obo12b2ob2obo7bob4o6bo6bob5obo
b2o5bo4b4o3b5obo3bo7bo3b2o3bo3bobob3o9bo6b3o9bo2b2o5bo2b2obo4bo2bo8b3o
3b3o9bo3b2o2bobo2bob3o$3b4o4bo4b4o2bo5bobo6b2obo3b3o2bobob2o2b2o6bobo
8bo4b3o12b3o2bo8b3ob2o8bobobo10bo6bo3bobo4bo2bo7bo6bo4bo5bobo2bobo10b
3ob2obo10b2o2b3o4bo2b2o2b2o2b2obobo11b3o10b2o3bo2b2o3b2o$3b4o4b2o4bobo
8b2o7b3ob4o3b3o3bo2b2o6bobobob2o3bo6bo3b2obobo2b5o3bo6b4obo5b5o19bo4b
4o3bo2bo3bobob2o5bo3b2o23bo4bob7o3b3o5bo4b2o5bo4bo2bob2o8b2ob5o3bob8ob
o3b2o$6bo5bo5b2ob2o3bo2bo3bo4b6o4b3o2b2o4bo6b2o8bo6bo2bo2b5obob2o4b4o
2b2o4b2o2bo3b2o20b2o4b3o2b2o2b2o2b3ob2o5bob5o2bo24bo5b8o7bo5b3o6bo4bob
obo9b2o2bo3bo2bo4b2o7b3o$4bo5b2obo5bob2o3bo2bo8b3o9b2ob6obobobob2o6bob
ob2o3b2obo3b2obob3o2bo3b8ob2o3b2ob4o5bo4b3o10bobo6bo2bobo5bo6b3o2b2o
11b4o8b2o2bo28bobob3o5bobo6b5obob2o3bobob2ob2o8b3o$3b2ob4ob2o2bob3o3bo
bo11b4o7bo3bo2bo2b2o3bob4o7bo2bo3b3o2b7o7bo5bo2bob2o4bob2o6bo4bo3bo4b
2obo5bobob4ob2o5bo11bo5bo8b3o7bobob7o15bo4b6o2bo5bo7bobo5b2ob2o3bo2b2o
bo$3bo10b3o3b2ob3o2b2o8bob3o8b9o2bo5b2o3b2o3b2o8bo2b2obo3b2ob2o3b6obo
4bo2b2o6bobobo5bo3b3o4bobobob3o4b4ob7ob5o5b2o9bo7bob2obobo3bo14b5o3b4o
bo12bo2b3obo2b5o4b5o7bo$4b2o5b2o2b4ob2o6bo4b2o4b6o4bob3obo2bo4bo5bo2bo
4bo6b3o7bo3b6ob3ob2o2bo8bo5bo2b3o5bo5bo4b2ob2o2bo5b4o2b2o3bobo2bo2bobo
b2o8bobo10b2o6b2o16b2o3bob4ob2ob2o4bo4b4o2bo2b2o4bob7o4b3o$4b2o9b2o5bo
5bo3bob2o4bo3bo4b2o2b3o2bo3b4o3b2o2b2o2bo3b2o3b2o5b5o3bobob2obobo3bo7b
2o3b2o11bo4bo2bob2obo4bo4b2o3b2o5b4o7b4obo3bob6o3b2ob2o6b2o5b2ob2o6b2o
4bob2ob3o5b2o9bob3o6b3o2b2obo3b4o$8bo6bobo3b3o2b2o3b2ob2o4bo4bo4b2o3b
4o6bo3bo3b2ob2o3bo6bo6bobo3bob2obo3bo3bo8b2o3bo8b5o5b3obo2bob3ob5obob
3o4bo3bo3bobob4obo2b4o2b2obo2bo6bo3b4o3b5o5b2o10b3o4b2o2b4o2b4ob2obo4b
2o2b2obo3bo$14bobo5bob4o2b2o2bo2b4o3b2o4bob3ob2ob7o4bo4b2ob2obo4b5o5b
2o3b4obobob6o4bob3o3b4o5bo3bobo2bo2b3o2bo6bobo2b4o5bo3b2obobo3b3obo5bo
4b2o3b3o3bo13b2o2b6o8bobo5b3obo3b3ob2ob2ob2o7b3o4bo$3b2ob2o5bob3obo3b
3o8b8o2bo3bo8bo2b2ob2o5bob3o4bob6o2bo14b8o2bob3obobo5b2obo4bo3bo4b2o7b
2o4bo3bo2bob4ob2o4bo3bo4b2obobo2bo5b2o24bo2bo2bo2b2o6b2o9b2o8b2obobo6b
4o4b5o$3b2obobo5b3obo4bo6bo6b8o5bo6b2ob2o9b4obob2o3b5obo6bo4b2o2bo4bo
6bo2bo3bo3b4o3bo10b2ob2o2bo5bo7bo7b3o2bo10b3obo2bo3b2o23b2o3b4o2bo8bo
6b2o11b4obo5bo2bo7b3o$9b2o4b2o2b2o2bobo4b2o3b2o11b4ob5obobo7b3o2b6o4bo
2bob2o2b2obo3bo6bobo5b4o4b3o2b2obo3b3o8bobob4o4b3obob2obo2bo4bobo2b2o
2bobo5bo3b8o17b2o6b3o2b3o2bobo2bobo7b2o13b5o5bob2o4b2o$7bo2bo5bobo11b
2o3b2o5b2o5b2o3b2obo5b4o2bobo5b5o6bo2b2ob3ob2o11bobobo3bo7bob3o2b2o21b
obo6b2o2bo4b2obob5ob2o4bo5b3obo24bo4b3ob6o6bo6bo11bo5bo5bo3bo$3bo5bo6b
2o7bob2obo3bo7b2o6b2o4b2ob2o6bob4ob3o8bobo2bo7b2o11bo2bo3b6o2bo5b2o6bo
3b3o4b3ob2o2b2o7bo3b2obobobo2bo4bo9b2obo12bo8bobo7b2obo2bo9b2o4bo24bo
3bo5b3o$3bo23b3o2b3o6b3o5b2o15b2o3bo18bob6o4b3obo4bo2bo4bob2o4b5o3bo4b
o3bobo5b5o3bo7bo3b4o4b3o6bobo2b4ob2o4bo5bo10b4o6b3o2b2o4b2ob2obo3b3obo
bo19bob2o6b3o$3bo20b2ob2ob2o2b2o2bob2obo7b2o6b3o5bo3bo12b2o4bobo2b2o7b
3o6b2o3b3o5bo2bo3bo5bobobob5o3bo7b2o11bo6bob5o3bob3ob3obo9b3o12b2o3b2o
bob3o4b3o4bobo3b2ob3o5bobo5b2o5bo$3bo28b3o2b3ob2o17bo2bo2bo3b2o2b2o2bo
b4o6bobo2b3o4bob2ob2o16b2o4bo7bo2bo2b2o4b2o9bob2o12bob4obo11b2o2b2ob2o
6bo4b3obo2b2ob3ob2ob4ob3o5b2o2b2o2b4ob6o2b2o4bo$21bo3bo5b6o3bo6b2ob4o
6b2ob3ob4obo2b2obob2o3b2o3bob5ob2o5bob3o4bo9b3o4b2o3b5o2bo2bo3b3o9b3ob
o13bobo8b2o5b3o2b2o9bo3bo3b3ob4o9b2ob2o3bo3bob2ob2ob3ob3obob2o3b3o10b
2ob2o$16b2o3bo9b2obob5o4b6o2b3o5bobo6bob2obo2bob3o2b2ob2o2b2ob4o6bobob
obo2b2o6b3obo5bo4bobo2b2o2bo4b3o13b2o5b2o2bobobobo5b3o3b4ob2o2bo4b3o4b
3obob3o2bo4b2o9bobo5bo5b2o8b2o3b2o6b2o2bobo2b2o$3b2o5bob6ob2o4bo3b3o9b
5obob2o6bo5b3o4bo2b3o7b2o2b3o2bo5b3o4bobo3bob2obo12bob4o2b4o2bo2bo3bob
ob2o2b8o3b2o7b5o10b5o4b3o13bob5o5b6o8b3o12b2o4bob3o10b7o$3b2o4b2ob4o3b
2o11bo4b9o11bo4bo4bo2bob3obo6b2o6bo2b2o9bobo5bobo2b2ob2o3bo2b2obo2b4o
5bobo2bo5bo2b4o3bo2b4o6b2o5b2obobob4o3bob2o13b4o3bobo8b2o9b2o13bo4bobo
5bo6b3o2b2o$6bo2bo2bo2bo3bo6bo3b2obobo5bo7bo11b3o2bob2ob2ob2obobo4bo6b
o3bo7b2o11b2o3bo3b4ob3o5bo10b2o2b3obo3b2o3b3ob2o6b2o4bo10b3o4b2obo11b
2o2b4o10bo2bob4ob2obo4bobo4b2o13bo5b2o4b5o$6bob4o4bo3bo5bo8bo5bo18b3o
7bobo3bo2bo4b2o3b2o4bo7bo2b2o9b4ob3o4b5o14b5o4bo3b3o3b5o12b2o6bo3b2o3b
2ob2o9bo5bob4o7bo3b2ob2o3bo3bob2obo3bobob4o8b2o4b2o4b5o$6bo8b6o12bo2b
2o26bo5b2ob2obob3o3b2o3bo6b3o4b2ob2o7b2obobo8bo3bo2b5o7bo3b2ob2o5b2o4b
obo11b2o11bo4b2ob2o5bo4bo5b2o2b4o6b2o4bob2o6b2o2b4obobo4b2o4b2obo11bo$
3b2o4bo7bo4bo3bo8b4o12b2obo9bobob3o3bob2obob2ob6o3b6o4bobo8b3o3bo6b2o
4bobob3o4b2o3bob3ob3o6bo2bob3o3b3o5bo11bo6b2o5bo4b2o3b3o4bo3b2o4bo5bo
8b2o2bo2b2o6b3obo3bobo11bo$3b2o12bo12bo5bobo13bo2b2o2bo2bo6bo4b2ob6o2b
2ob2obo7bo15bo4b2o5bo3bob8o3b2o3bobo18bobo31bo2b2o5bobo2b2o2bo5b3o4b2o
5bo11bo3b2o4b2obo3b3o3bob2ob9o$3bo9b3o10bo9bobo11b2o2bo3b6o5bo3bob2obo
2bo4b4o2b2o3b4o8b2o3bo7b2o2bo4bo4b4o3b2o17bobob2ob2obobo20bo8bo2b2o8bo
bo27b2o5b2o2bo16bob2o4b3o3b3o$3b2obo4b2o2bobo18b4o4b7o8bob3o5bo3bob7o
7bo3bob2ob3o7bobo3bo8bo2bob2o6bo2b2obobo4b3o4bo3bob3o2b2o2b2o10bo15bo
5b2o10bobo14bobobobo14bo2b2o16bo7b5o$3bo7b6o5bo12b2o7bo6bo6bobob2o2b2o
3b2ob4o7bob2o4bobobo2bo7b2o7bo5bo2bo8b2o2b2o8bob2ob2obo2b2o5b5obo2bobo
3b4o9bo3bo18bobo17b2obo7bob2obo15bo4b2o6bobo$3b2obobo2b3obob2ob2ob2o7b
3ob2o5b4o4bo8bo5bo4b3ob4o7b2o5bob5o5b6o6bo4b2obob4o4b2o2b2o13bobo4bo3b
2o5b3o3bo2b2ob2o10b3o19bo2b2o9bo3b4o2b4o3bob2o29bob2o3b3o$8bo2bo2b2o4b
o2bo7b2o4bo8bo4bobo4bobo4bobo4bo5b3obo10b2o4bo6bo2b2o6bo5bob2o2b2o3bo
2b4o20bo2bo6b2obo3b2ob2o8b3o25bob2obo6b2o3bo2bo3b2o5bob3o9b3o6bo2b2o5b
3obob3o$3b2obobo2b3obob2ob2ob2o7b3ob2o5b4o4bo12b2obo4bobo3bo2b3obo9b2o
2b4o2b5ob2o3b2o5bob2o3b3ob3o23bo3b2o5b2obo3b4ob3o16bo15b2o3b3o5bo7bo3b
2ob2o3b2o2bo7bob4o3bo2b2obo9bo$3bo7b6o5bo12b2o7bo6bo16bo3bobo4b2o2b3o
3bo7bob2o2b2o5bo2b2obo8b2o3b2o9bob2o3b4o8bo3bo3b3ob2o5b2o2b2o5b2o8bobo
bo5bo5bobob2o3bo11b4o11bo2b2o4b2obob3obo4b3obo8bo$3b2obo4b2o2bobo18b4o
4b7o15b3o4b2o5bo3b4o2bo6b2o5bobo3b3o12bo4bo5bobob3o9b2o5bo2b4obo4bo3b
3obo7b3o6bob3ob3o3b2obo3b3obobobo4bo13bo7bo10bobobo4b2o3b5o8b3o$3bo9b
3o10bo9bobo11b2o5bob2obo3bob5ob2o6b2o6bo6b2o4bo7b2o2bo7b2o4b2o4b7o4b2o
b5o4bob2o5bo4bo2b3ob2o3bob7o3bo9b3o2b5ob2o3b3obo17b4o3b4obo4bo2b4o3bo
5bo4bobo4b3o$3b2o12bo12bo5bobo13bo2bo4bobob5o5bo6bo3bo9b2o6bobo17b2o2b
2o10b2o4b2o2b2obobo2b2ob2o6b2o2b3o2bob2o3b2o4bo3bobo2b7o2b3o6bo4bobo3b
3o11bob4o3bo2bo11b2o4bo4bo4bobo$3b2o4bo7bo4bo3bo8b4o12b2ob2o4bobo2bo6b
10o3b2o8bo2b2ob2o2bo3b2o8bo2b2o3bobo10bo4b2o4b2ob2o3bo9b2o6b4o4bo3bo4b
o2b2obobo2bo2bob2o3b2o7bo2bo13b2o3b2o5bobob3o3b2o4b2o5b2o9b2o$6bo8b6o
12bo2b2o26b2o6bobob5o3bobo8bo2bo2b2o3b4o9bo6bobo11bo3bo4b2o5b2ob2o6b2o
bo2b7o4bo4bo4bobo7b2obo4b3ob2o4bo4b2o2b3o13bo5b2o4bo10bo2bo3b3o7b2o$6b
ob4o4bo3bo5bo8bo5bo22bo6bo3b2o3b4o3bo3bo2b2o2bo2b2o8b2o2b2o2b2o5bobo7b
2ob4ob2o4b2o8bobo2b2ob3o2bob2o7b4obo4bobo6bo3b2o10bo2bo6b4o5b2o2bo4bo
4bo2bo3bo2bo2bo5bob2ob2obo6bo$6bo2bo2bo2bo3bo6bo3b2obobo5bo7bo13b8o10b
2o4bo5b3o2b2obo9b4obo2bo3bo3bo9b2obob2o8b4o3bo8bobo2b4o4bob2obob5o2bo
7b3obo8bobob2o5bobobo6b3obo12bo5b2o7b2o2b2o5bo4bo$3b2o4b2ob4o3b2o11bo
4b9o15bo2bobob4o11b2o2bo5b2ob2o2b3o2b2o5b6o7bobo2b2o4bob5obo8bo5bob2o
6b2o3bobo4bo2bo5b4o8b2obob2o5b3ob2o3bo6b2o5bo2bo11bo2bo3bo2bo2bo5bob2o
b2obo6bo$3b2o5bob6ob2o4bo3b3o9b5obob2o10b2ob2o4b2o11b2o2b2o3bo3bo4b5ob
o6b3o2b2o4b2o2bobo4bobob4o4bo11b3o4b4o2b2obo2b2obo7b3o6bob3ob2o6b2o2b
3o3bo7b2o4bo3b2ob3o6b2o4bo10bo2bo3b3o7b2o$16b2o3bo9b2obob5o4b6o2b3o4bo
bo2bo3b2ob2o6bo7bo3bo3bo7bo14b2o3bo4bob2o2b2obob2ob3o13bob3o4b4o2bob4o
bo9bobo5b2o2b4o3bo2b5o3b4o4bo11b7obo3bobob3o3b2o4b2o5b2o9b2o$21bo3bo5b
6o3bo6b2ob4o7b2o6bo2bo2bo11bo4b2o2bo9b4o7b2obo9b3o3bo2bobobobobo9b2o3b
2o2bob2ob5o2bo13b3o3bo7bo5b3o2bo3b2ob2o4b3o7b2o6bo2bo2bo11b2o4bo4bo4bo
bo$3bo28b3o2b3ob2o16b2obo2b2o2bo2bo3b2o2bo3bo2b2o4bo2bo2bo17b2o10b2o2b
obo3b3ob5o3bo5bo5b2ob2o5b2o4b2o6bo5bobo2bo8bo3b3o4bo5b2o3bo2bo2bo3b2o
7b7obo4bo2b4o3bo5bo4bobo4b3o$3bo20b2ob2ob2o2b2o2bob2obo10bo4b4o2b3ob2o
bo3bo7bo2bo2bo3b3o12bo2b4ob2o10b3o3bo10b4ob2o5b2o3b6o2b6o16b6o5b3ob2ob
2o4b2o5bo6b5o3b2o4b3o14bobobo4b2o3b5o8b3o$3bo23b3o2b3o6b3o5b4o7bo5b5ob
4ob8o2b2o5bobo10bo4b4obo16b2o8b5obo12b4o3b2o2b2ob3o15bo8bobob5o5bo2bo
2bo2bo2bob4obo2b4o2b4o2b2o2bob2ob2obob3obo4b3obo8bo$3bo5bo6b2o7bob2obo
3bo7b2o6b3o8bo5b3o2b4obob3o2bo11bo9bob2o3bo4b3ob2o4b2o5b6o3bo3bo4bo10b
2o7b4o11b4o5b3ob2ob5o2b2obo3bo2b4o3b4obo3bo2bobo4bo2b2obo2bo6bob4o3bo
2b2obo9bo$7bo2bo5bobo11b2o3b2o5b2o5b4o8bo13b7ob2o12bo8bo2bo5bob2ob2o
12b3o3b4o13bo7b2o3bob2o2b2obo8b2o6b2o4bo2bo2b2o3b3o3b3o2bo3b3o5b8o3bob
o2b3o9b3o6bo2b2o5b3obob3o$9b2o4b2o2b2o2bobo4b2o3b2o11b3obo7b2ob5ob3o3b
o2b3ob2obo15bo3bo4b2obo3bo3b3obo11bob2obo21bobo4b2ob2ob3o8b2o13bob2o5b
2obobobobo3b2o2b2o3bo5bo3bo3bo5bo27bob2o3b3o$3b2obobo5b3obo4bo6bo6b8o
6bobo5bo3bo3bobobo4bo2bo4b2o2bo3b2o12b5ob3o3b2ob2o2bo13b3o2bo2bo4bo11b
2obob3o7bo3b2o18bo2bo4b3ob2obob2o3b2ob2o3b3obobob2o2bobo5bo3bobo10bo4b
2o6bobo$3b2ob2o5bob3obo3b3o8b8o2bo3bo3b3o8b2obobo3bo2bo2bob3o3bob2o15b
ob3ob3o4b2ob2o2b2o9bob2o2bo7b2obo10b2obob2o7b2o4bo4bo4bo9bo2bo3b2o6b2o
b6o2b4obob4o2bob3o5b2o4bo16bo7b5o$14bobo5bob4o2b2o2bo2b4o3b2o5bo2b2o6b
obo3bo2b2obo2bob2o5b3o3b2o7bo10bobo4bob5o2bo3bob3o3b3o9bo12b5o4bo3bob
2o14b2obo4bo2b4o3b3o2bo6b2o4bo2bo2bo4b2ob3o8bo17bob2o4b3o3b3o$8bo6bobo
3b3o2b2o3b2ob2o4bo4bo4b2o2bo6bo4b2o4bobo2bo4bo3bo9bobo2bobo3bo4bobo4b
2o6bo2bo2bo3bobobo18bo5bob2o8bob2o12b2o18bobo2bo8b4obo2bob2o3b2obobo4b
2o3b2o5b2obo3b3o3bob2ob9o$4b2o9b2o5bo5bo3bob2o4bo3bo4b2o4b4o2bo4b3o3b
3ob2o5bo2b2o4bo3b4ob3o8bo3bo5b2o3b2o3b2o3bo2b2o12bo13b2o7bo4bo13bob2o
3b4ob2o2b5o2b2o7bob3o2b2obo4bobo3bo2b2o3b3o6b3obo3bobo11bo$4b2o5b2o2b
4ob2o6bo4b2o4b6o4bob2o2b4o2bo10b2obo4b8o4bo2b2ob4o2b3o2b2obo3bo4b4o3bo
5b2ob2ob4o8bo3bo12bo6b2ob2ob3o6b2o3b3o2bobo6bobobo4bo2b4o10bo2bo3b2ob
2ob3o5b2obobo4b2o4b2obo11bo$3bo10b3o3b2ob3o2b2o8bob3o8b2o6b4o9b4o4b2ob
ob2o2bo4b3obo2b2ob2o3bo3b4o6b2o3b2obo4bo3b5ob2o2b2obo5bo8b2o3bo2b2obob
o9bo6bob4o7bo3bob2o3b3ob3o3bo3bo3b6o2b2obo6b4ob4o8b2o4b2o4b5o$3b2ob4ob
2o2bob3o3bobo11b4o7bo3bo6bob2o8bo8bo7b2o4bobobo2bo4b2o2bo2b3o5b4o2bo8b
o3b2o3bo6b2o5b9o4bob2o2bo4b2o4bo11bo9bob6obobo5bo7bo12b3ob3obobo15bo5b
2o4b5o$4bo5b2obo5bob2o3bo2bo8b3o9b2ob2o2b2obobo4b5o8bobo6bo5b4obo6bo2b
o3bobo5b2o3b2o7b3ob4obo5b4o4bo7b2o2bob5o9b4o3bobo4bobo10b2o4bobo5bo2b
2o4b4o8b4ob3o8bobo5bo6b3o2b2o$6bo5bo5b2ob2o3bo2bo3bo4b6o4b3o2b2o2bo2bo
5b3o6b3o3b2o6b4o2bobob2o2bo4bo2b4ob2ob2o6bo8b4obobo5bob2o2bo5b3o2b2ob
2o5bo9bo3bo10bobo6bo2bobo16bo2b3o2bo2b6o5bob2o7bob3o10b7o$3b4o4b2o4bob
o8b2o7b3ob4o3b3o3bo2b2obo5b2o7bob5o8b4obo6b3o3bo2b4o12bo2b3o4bo3b4o6b
6o4bo9bo4b2o8bo9bo4b5o3b2obobo8bob3o5b10o6b9o10b2o3b2o6b2o2bobo2b2o$3b
4o4bo4b4o2bo5bobo6b2obo3b3o2bobob2o4bo5bo3b2ob2ob4o2b2o6b2obo8bo2bo3bo
9b6o3b4o2bo3bo5b2ob2o3bo3b3obobo3bo5bob4o2bo18bo3bobob3o2bo12b2o8b4o3b
o10b2o3b2ob2ob3obob2o3b3o10b2ob2o$3b9o4bo3bobo4b5o6b2o3b3o3bo5bo8bo4bo
bobo3bo18b2o3bo3b2obo4b2ob3o3bobo8bo6b2o4b2o7b2ob2obo11b3obobobo21b2o
3bobo8bobob2ob2o6b3o9bo12b7o2b2o4bo$3bo6b3ob2o4bob4o2bo3b2o5bobob3o10b
2o5bo5bo3bo4bo2bo2b6o5b2obo2bob5o2b2o10b3o13b3ob4o7bo5bobo2bob2o4b2o7b
2o19b2o3bo2bo6bo7bo8bo3b2o4bo2b2obo3b2o4b2o5bobo5b2o5bo$3bo6bob4o4b3o
3b2obo6b4ob2obo12b2o4bo5b2ob2o4b5obo3b2obob4o4b2o2bo4b2o7bo4bo9bo8b3o
7b2o3b2ob2obo3bo3bo8bob2o7bo8bo2bo2bobo7bo4bo2b6obobo8bob2o2b4ob6o19bo
b2o6b3o$3b10obo5b2o3bo2b2o2bo5b3ob2o5bobo3b4o5b2o7bob3ob5o5b2o4bo6bo2b
o3bo9bo3bo10bo6bo8bob3o3bo2bo5bo12b2o3bo5b3o6bo3bo2b2o6b2obo3bo2bo5b3o
2b2o2bo4b2o9b2o21bo3bo5b3o$6b3o2b2obo3b2o9bo2bo4bo4bo11bo2bo6b2o3bo3bo
bobo2b3o4b5o13bo3bo4bobobo4bo10b2o7b2o4bob2o8bo5bobo6b2o3bo2b2obo4bobo
5bo3b2obo8bo5b4o7b3o4bo3bo10b5o7bo5bo5bo3bo$4b3o11bo11b3o5b6obob4o3b8o
3bo3bo6bo4bo4bo2bobo7bobo4b3o5b2ob3o4bo4b2ob4obo10b4obo7bo5bobob3o5bob
o2bo6b2o2b2o3bo3bob2o3b2o4bo7bo3bo2b3o3b2obo6bo5bo3b2o9b5o5bob2o4b2o$
4bo5bobob4o5b3o5bo2bob3o2bo2b2o6b2obo2b2obob2o5bobo2bo2b4o4bo6b2o8bo3b
o5bo2b3obo4b5obobo4bo7bob2obo6bo2b2o2b4ob6ob2ob2o3bobo3b2o4bo3bo4b2o3b
2o2b2o12bo2bob4o10b3o3bo3b2o7b4obo5bo2bo7b3o$5bo6bo9b2o2bo3b3obobobob
2o4b2o3bob2o5b3obo5b3o2bo2bo4bo2bobo4bobo5bobo9bo2b2o10b3ob2o2b2o9b3o
2b3o3bo2bobo4b2o2b2o4b2o3bo5b2ob4obo8b6o5bobo10b6o5b2o11bo3bo8b2obobo
6b4o4b5o$5bo7bo8b2obo4b3obo2b4ob5o2b2o4b2o5b4ob2o4b3o7b5o14bo9b2obo13b
o6bo10b3o9b5o4bo7b2o3b2obob2o4bo2bobo9b2o2b2o5bob2o8bobo2bo4b3o8bo2bo
3bo3b3ob2ob2ob2o7b3o4bo$5bob3o3bo8b4o3b4obo3bobob2o3b5o3bo5bob2obobo2b
3o7b2o4b2o6b4o2b2o6bo2bo2b2o13bo3b2o12b2o3b2o5bo2b6o8bo3b2o5bo2bo7bo8b
o10bo2bo6b4ob3ob4o5b4o7b4o2b4ob2obo4b2o2b2obo3bo$4bo4bo4b2o7bo3b3o4bob
2o3b3o3b2o3bob2o7bo3b2o2b2ob3o2b2o2b3obo6b2ob2o9bobob2obo6bo3bo3bo2bo
12bo2b3ob2obo4bobo5bo5b2o4bo6bo2bo3bo13bo2bo2bo3bo2bo4b2o3b2o5bobo6b2o
3b2o10bob3o6b3o2b2obo3b4o$3bo3bobo3bo6b2o3b2o3b2o3b2o3bo7bo3b2o12bo8bo
3b2o2bobo2b2o4b4o12bob2obo9bobo3b3o7bo9bo3bo5bo2bobobo5b3o4bo3bo5bo4b
2o10b5o6bo9b2obo14bobo3b2o6b4o2bo2b2o4bob7o4b3o$3bo5bo3b2o13b9o3bo3bo
10bo10bo4bo4b3ob7obo5b2obo9b2obob3obo8bob3obo3b3o8bo6bobobo4bo2bobo5bo
7b2o4b2o2b2o3bo11bob7ob2o3bo7bo15bob4o7b3obo2b5o4b5o7bo$3bo6b3o9b3o3bo
2bo3bo12b2obobobob3o6bo4bobo3bo2bob2o2bo2bobobob3o9bob5o10bo5b2o3b3o3b
o2b3o4bo12b2ob2o3b2o14bo2bo3b3o10b3ob2o2b2o5b2o10bobobo6b2ob3o3b4obo5b
2ob2o3bo2b2obo$3b2o4b3o12bo3b4o3b2o2bo4b2ob3o3bobobo9b11ob2o2bo9bo6b2o
8bo13bo5b2o3bobo6b2obo3b3o12bo5b2o2b3o9b4o2bo8b3ob2o7b7o2bo8bobobob3o
2b4o2b3obo2bob4obob2o3bobob2ob2o8b3o$2b2o5bobo11bo15bo3b4o2b2o2bo11bob
o4bobo4bob2o6bo2bo7bo3bo4b2o13b2o6bo2bo2b4o4b2o16b3o9bo2b3o3b3obo4b2o
2bo4b3ob2o7b4o2bo11bob3ob2ob2o3b3o2bo5bo4b2o2bo3bo2bo4b2o7b3o$2bo7bo5b
ob3ob2o11bo4b2obo2b3ob2o9b5o5b3o3bob3ob2o5b5ob2o3b2o6b3o13bo4b3ob2o5b
7o14b2ob2o5bo4bo2b9o5bob3o3b2o11bo3b4o8bo5b2o3b3o4b2o8b4ob5o3bob8obo3b
2o$2bo6bobo4b2o2b3ob4o7bo11b5ob3obob2ob5o6bo3bo5bo4b5obo3b5o3bo2b3o14b
2o2bobo3bo4b2obo16b2o3b3o3bo3bo2b2o3b2ob3o6b2o6b2ob4o9b3o2bobobo4bob3o
3b2o6bo3bo6b3o10b2o3bo2b2o3b2o$2bo5bo4bo2bob2obob9o3bo8b3o2b6obo5bo3bo
4bo12bo4bob2o7bobo3b5o9bo4bobo2b2o4bo4bo5bo11b3obob2o2bo6b3o5bob2obo8b
o6bobo3bo7bo3bob3obo5bo8b2o4bo2b2o4bo2b3o9bo3b2o2bobo2bob3o$3bo11bob2o
5bob3o2bo3bo16bo7b2o4b2o9b2ob5o3bobo10bobobo2bob3o5b2o5b3o2bobo4bo3bob
o2b4o4b2o3bo6bo2bo9b2ob5o3b3o9b5obobo4bo8bo5bo6b4o3b2obobo2b2o4bo2bo
16b2obo7b3o$4bobo2b3o5b2o3b5o5b2obo3b2obob2o10bo2bobobo12bob2o4bo10bo
5bob5o2bo2bo3bo8b5o3bob2o2b9obo4bo3bo6bo2b4o6bobobo7b3o6bo2b3o9b3o6bo
5b3o13b2o3bob2o3b3o9bo9bo$4bo7b2obobo3bo3bo6bob2o4bob2o12bo2b4obo2bo6b
5o22bob4obobo2b4o2b4ob2ob3o2b2o2bo2bob2o8bo3bo9bo3b4ob4obo2b2ob4o5bo3b
2o2b2o14bo6b3o5b2obob4o5b2o2b2ob3o2bob2o3b2o3b2o14b2o$4bobo3b3o8b2o2bo
7bo8b4o12bo3bobo9b2o2bo16bo4bob2ob2o3bo5bo4b2o3b2o4b2o2bo2bo6b3o10bo5b
ob3o4bo2b3obo3bo2bo11bo4b2o8bo2b6o3bo7b3o15bo4b5o3b4o19b3o$4bobo3b2o3b
2o2b2obo3bo14b5o4bobobo2b2o3bob3o5bo5b5o10bo8b2o3b2obo2b2o7bo4bo3bob2o
b2obo3b3ob3obo5b2obo5b2ob2o2b6ob2ob2o3bo2b4o4b2o4bobo7bo4b2o5b4ob3ob4o
b3o9bobo2bo2bob2o6b2o14b5o$3bo2b2o3b2ob3ob2o2bo3bo4bob4ob4ob2o2b2o5bo
7b2o2bo2b4o5bo4b2o2bo6b2o5bo6b3ob2o8b3o6bob2ob2obo2b2o4bo8b4obo5b3o2b
2ob5o2b2o3b4o9bo3bobo7bo4bo2bo4b4ob2o4bo4bo12bo2bo2b4o7b2o6bo5bo$3b3o
4b2o3b5o2bo2b3obobobobob4o6bo2b5o9b2o4b8o9bo4b3o2bo3b3o7bobo16b3o3bo5b
3o10b4ob4o10b2o3bo3b2ob2ob2o5b4o6b2o5b2o5bo9bo8bo2b2o11bob2o3b2o8bo9b
2o4bo$5bo4b2o6bo3b5o3b5o2b2o5bo3bo5bo15bob3o8bo4b2o4b2obo4b2o25bob2ob
2o4bo2b2o8b2ob2o2bo2bo5bo4bo7b5o2bo2bo3b2o5bob2o6b2o5b2o13b3obo2b2o4bo
b2obo12bo13bobo4b5o$6bo3b3ob2o2b2o9bo7bo4b3o3bo6bo8bo5bo11b2o4b3obo2bo
5b2obo24bob2obob2o4b2o2bo7bobo2b2ob2o18b2o5bo5b2o6b3o7b2o2b2ob3o15bobo
7bo3bobo22b2o2bo7b3o$6bo3bo2b3o2bo4bobo2b2o7b2ob2o6bob2o3bobobo3b2o4b
2o3bobo3b2o6bob2o2bobo6bo13bo11bob3o2bo7bo9bob2ob3o5b2obo12bo5b2o2bo8b
o3bo5b4obobobobo7bo4bo11b2o3bo24bo2bo5b2o$7b4o6bo7b6o4b3o4bo14b3o2bo5b
obo4b4o3b2ob2o2b5obob2o14bo5bobobo5bo4b2o8bob2o7b7o10bobob4ob2o2b3obob
4o5b2o5bo6b2obo3b2o3bo4bo6bo10bo3b3o6b2o3bo9bo3bo$2b3o2b4o6bo3b4o2bob
2o4bob2o3b3o13b2o8bob2o2b2ob2o4bobobobo3b5obo6bo8b2ob2obo2bobob2o2b2o
22bo2bo5bo7bob2o5b3obo3b2ob2o6bo4bo5bobo2b5o9bo4b2o12bo2bo7b3o9bo4b3o
8b3o$2bobo2b4o6b2o2bo4b2ob4o10b2obo10bob2o3bo3bo4bobobo5bob2ob2o9bo6bo
2bo4b5obobobob2o4b2o3b2ob2o4bo4b3o2bo2b6o16bobo6b3o3b3obo5b2o3b2obo5b
2o8b4o2bo3b2obo6b2ob3o4b2o2bo3bo4b2o4b2o8b3o$2b2ob3o2bo4b4ob2ob3o3b3ob
2ob2o3b2o6bobo5bobo7b4o2b3obo5bo14b2o8bobo2b2obobo2bo3bob5o7b4o7b2obo
3b4o3b3o5bo6b2obobo14b2o2b4o6b2obobo5bo5b2o3b2o3bo2b5o4bob2o2b6o4bo3bo
2b2ob2o7b2o$2b3ob5o4bob2obobobobo2b4o4bo3b2o8bo6b2ob2o8b2ob2o4b2o3b4o
5b4o4bo5bob3o3b3o2b2obo2bo9bobo10b2o3bo2bo6b2o6b2o4bobobobo10b2obo2bob
ob2o5bo10bo6bo3bo4bo6b2o3bo6bo2b3o7bo7b3o2bob2o$3bo2b5o5bo5bo5b2ob2obo
b2o11bob2obo2b4o11bobo5b2o4bob5o4bo2b3obo3b2o2b3o3b4obobobo2bo10bo5bo
13bob2obo5bobo2b2o3b2o2bo2bo2b3o4bo2bo3bo6bo12bo3bo4bo3b4o2b2o6b4o2bo
11bob2ob2o3b5obob3o$3b6o2b2obo7bo5bo3bob9o7bobo2bo3bob2o9b2o5b3o10b2o
7bobobo3bo2bob5o2bob4o10b2o11b2o2b2o5bo3b2o4bobob3o2b2ob3obobobobo3b5o
7bo10b2o3b2obob2o4b3obobo2bo9bob3obo7bobob2o2bo7bo3b3o$6b2o4bob2o3b2o
2bo5bo5b2ob3o8bo5bo2b2o2bobo7b2o4b2obo16bobo3bo7b2obo2b2ob4o2b4o4b5o2b
2o8bobo7bo3bo3b3o2bobo3bobo7bobobo3bobo3bo3b2o13b2o2bo2bo8b3o2b2o11b2o
5bo3b2ob2o3bo7bo$4bo2b2o3bob2ob4o3bo8b2o3bo4bo5bob3ob4o3b3o7b2o4b3o16b
ob2o3b2o3bo3b2o9b3o9bo2b4obo8b3o4bobo5bo10bo3bo13bo5b2ob2ob4o2b2o2bo3b
2obo4bo8bob4ob2o8b3o3bobo2bob2o3bobo6b2ob2o$3b2ob2o5b2o10b2o3bob2o4bo
4bo5b5o2b2o4bobo3bob2ob2o5b3o4b3ob3o4bo5bo2bobo3bo15b4o2bob2o5bo8bo6bo
b2o2bo10b3o13b3o3b6obo2b2o2bo10bo4b3ob5o2b9o10b2o2b3o2bob2o3b2o7bo4b3o
$3bob4obo4b4o3b4o6bo6b7obo8bo5bobobobo2b2o3bo5b2ob2o2b2o2b3obob2o9b2o
2bo14b4o3b4o2b4o9bo4bo6bo2bo10bo5b3ob2o2b2o4bo3bo4bo2b2o2b2o10bo3bo3bo
3bo5bob2o6bo3b2o5b2o9b2o6b5o$14bo3bo3b2obobo2b2ob2o2bo2bobo4bo7bo5bo2b
3o3b2o2b3o3b2ob2o11bo2b2o3b2o5bo2bo3b5o12b2ob2o2bo2bo2b3o2bobo5bob4o3b
3o15bob3obo4b2ob3o4b2o2b2o11bob2o2b2o3bob2o4bob2obobo3b2o3b2o5b2o4bobo
5b2o4bo$3bo28b2ob5o9bo5bo4b4o2bo7b2obo2b3obo5b2ob4o3bo3b2o10bob5o6b2o
3b3o2bobo5b3o3bobo4bobo4b2obobo10bo3bo6b2o7b2o5bo4bo10b2obo2bo3bo2bo
12bo4bob4o3b2obo4bo6bob2o3bo$3bo7b2obo5bo6b3o2b2o16b4obo4bob2o2bo8bobo
4b6o2b2obo6bo2b3o2bo3b2o4bobo2bo5b3o3bob3obo3b2o4bo7b3o7b2o3bo3bo4bo3b
o6b2o3b2o7b5o3bo8b2o2bo2b5o2bo5bo6bo3b2obobob2ob3o5b3o5b3o2b5o$11b2o
13bobo3b8o13bobo10bo7b2obo5b5obo4bo6b2o3bobo2b2o5b3o2bo7b4ob2o8bo4bo2b
2o3b6o3b3o2bo2bo2bo8bo5bo4bo3bo6b3o4bo2b2o6b2o9b2o5bo8bo3b3ob3ob2o6bo
2b3o3bo4b3o$10b3o8bo4bob2ob3o12bo7bo10b2o8bo2b2ob2o4bob2ob3o4bo6b2o4b
2o3b2o4bo4b3o5b2ob2o5bob2o3bo7bo7b2o2b2o3bo8b2o5bo2b3o12bo7b2o7b7o5b8o
bo5b4o15bobob2ob2o3b2o$16bo4bo4bobob2ob2o6b3o25bo4b2o2b2obobobo4bob2o
2bob2obo10bobo3bo2b2o3b3ob2ob2o12b3obob4o5bobobo4bob2o4bo5bob2o2b6o2b
2o11b5obobo8b3o2b2ob3o11bo3b2o2bo6bo3bobob3o2bobo$15b4obo6b2ob2obo7b3o
3bobobo16b2o5bo4bobo3bo2b2o5b4o3b2o7bo2bo3b2obo2b5o3b2o20bobo12b3obo
10b2o3b2obo7bo10b3o2b2obo8b2o6bo2b2o9bo3b10ob2o4b2o15b3o$2bo4bo5b2ob3o
10b2o2bob2o2b4o7bob2o6bo7b2o4bo4b2o2b4o2bo6b2o5b7o4bo4bo5b3obo3bo18bob
o3b2o6b2o9bobo3b2ob4obobo2b2o2b2o7b5o3bob2o8b3o4bo4bo9bo4bo2b2obob3o6b
o2b2o11b3o$2b2ob3o4bo5bo3b2o4bo4bo2b2o2b2ob2o4b2ob2o5b2o3bob2o11bo3bo
5bo14b2o13b2o8bo2b3ob2o8b2o5bo3bo3bo5b4o4bobo6b2obo5bob3o3bo7b2o2bo3b
4o20bob3o5bo2b2o3bobo2b3ob2ob3o2b2o4bob2ob2o$2bobo2bo4bo5bo2b2ob2o2bo
4bo10bo5bo2bo5bo4bob3o5bo4b2o3bo2b2o17b2o10bo2b2ob2o2b2o2bo4b2o5bo2bo
4b2o3bo2bo6b2o8bo5bo9bob2o16bo6b2o9bo8b3ob2o5bobo5b4ob6ob2o2bo5bo2b2ob
2o$2b3o2b2o2b2o5b3o3b2o2bo2b2o5b5o6b4ob2o2bo6b4o6b2o2b2o3b2obo5bo13bo
2bo7bo2b4o4bo2b4o2b3o2b2o2bo2b2ob5o2bo6bo4b2o3bo3b4o13b2obo4bo5b2o6b3o
16bo2bo8bo2b2o6b3o3bobob4o3b2o3b2obob3o$7bob3ob5o2b4obob4ob2o5bobo10bo
2b3o6b3o9bo3bo3b3o4b3o12b2o2b2obo2b2o3b5o4b3obo8bo2bo4bobo2bobobo6bo2b
2o10bo11bo3bo2bob2ob2o4b2o4bobo8bob3o2b2ob4o8b2ob2o12b2o5bo2b3o4bo3b3o
$7b3o5bob2obo2b2o12b2o2b2o4bo2bo3bo2b3ob2o3bo8b2o5bo4bo2bobo3b2o6bo2bo
2bobob4o3bo2b3o5b2o7bo2b2o2b4obo2bob3ob4ob3o2b2o2b3o3b2ob2o7bo4bobo6b
4obo10bo2bob5ob2o3b2o4b2o2bo4bo4b4o6bo6b2ob3o2bo$8b2o4b3obob4o14b2obo
5bo6b2ob2ob2o3bo2bo7bo4bo2b2obo2b3o6bo4bob2o2b3ob2ob2o2bo2b2o11b2o6bo
4bo3bobo4bo3bo6bo3b3o3bob6o21b3o12bobobobobob5obo11b2o4b4o3b4o6bo2bob
2ob4o$6b2o5bo2b3o4b2o2bo11bob2ob4obo4bobo8b6o10b5o3b2o5b3o3bob2o2b2o2b
obobobo2b2o3bobob3o6b2o10b2ob2ob3obo4b3ob2ob2obob2o2b2o3b2o21bobo15bo
2b3o4b2ob2o5b2o4b2o4bo4b3ob2o6bo2b2obobo3b3o$5bobo5bo2b2ob3obo2b2o10b
2obobo2b2obo6bo4b4o6bo4bo9b3obo5b3o3bob2ob4ob4o2b2o3bo3bobo9b2o4b3o3b
4o4bobo3b4obob5ob2ob3o3bo22bo7b2o7b2o4b2o3b2ob2o9b3o2b2ob4obob3o7bob2o
3bo2b5o$3b3o3b2o2b3o5bobobobo2b2o7b4ob2o3bo11bo2bo6bo3b2ob4o5b2o7b3o5b
2obo2bo2bob2o3b3o4b2o3b2obo3b2o11b3o5bobo3b2o5b2obo3b3o20b3o11bo5b2o3b
ob3obo3b2o2b2o2bob2obo7b2o2bob3obob2o4bobobob2o3bo$3bo16b2o4b4o2b2o4bo
bobo2b4o9b2ob4o3b3ob2ob3o4b4obo4bob2o5b3o3bo4bobobo3bo2bo3b2o5b3o2b3o
3bo13bob2ob2obo5bo2bo10bo3bobo7b2o10b4o3bo2bob6ob2o6b8o12bobobo2b4o2bo
4bo9bo$4bo4bo9bo3bo3b2o2b4o4b2obo6bo3bobob3o8bobo5b2o4b2obobo3bo3bo4b
2o5bob6o8b4obo4b2obobo2bo17bo2b4o2b2ob2ob3o2b3o3b2o3bo2bo9b2o4bo5b2ob
3o6bob3obob2o3b2obo2b2obo2b4o4bobob2obo2bo2bo4bobob3o2b5o$4bo4b2o7b2o
3bo3b4obo5bo5bob3o4b4o6b4o2bo6bo6b3ob2o3bo6bo7b2o2b3o3b2o4bo4bo5b3o2bo
bo3b2o5bo8b2o5b5o3bo2bobo2b3o2bo3b2o5bob4ob3obo4bobo3b2o3b3ob2o3b2o9b
2o3b3o7bob2obo2bo3b2o5b3o5b3o$4bobo2bo5bob3o2bo5bobo7b4o4bobo4b2ob2ob
5o3bo3b2o3bobo10bo8bob7o8bob2o6bobo2bo2b3ob2o2bo11bo7bo9bo4b3o2b3obo3b
o2bo12bo4b2obob3obobobo2b2o5b5o2b2o6b2ob3o8bobob2o3bo4bo2bo3b6o$4bob5o
2bo2bob4o5bo16b2ob2obobob2ob3ob3o4bo3bo3b2o5b6o7b2o2b2o2bobo3b3o2bo14b
8o16b4o2b3o5b3obo2b6o8bo2bo13b2o2bo4b3o5b6o2b3ob4o8bo2b2o2bo11b3ob2o2b
2o3b4o2bo$2bo3b3ob4o4bo3b8o8bob3o3b4o4b2o7b2o8b3obo6b2ob3o4b2o3bo5b2o
2bob2obo5bo6bobo8bo3b2o11b2o5bo5bobobo3bo4bo7bo22bo13bo5bobob3o3b2o3b
2ob3o10bo3bob2o4b4obobo2bo3b3o$2bo5bob4o6bo5b3obo7b3ob3o8b2o3bo4bobo3b
o6bo7b3o5b2o3b2ob2o2bo3b2o3b7ob2o5b2o8bo7bo16b3obo3b2obobo4bo7bo2bo9b
3obo5bo5bo8bo4b8obobo4b3o11b2o2b2obo6b2o2b6obob3o$5bo4b4o2bo6b2obobob
2o6bo2b2o10bob2o2b2o3b5o9bob2obobo6b6ob6o3b2o2b3ob4ob3o3bo9b2o3b2ob2o
6b3o6bo10b3o5bo3b2o3b2o10b2ob2o5bo4bo11bo2b2o2b3o12bo9bo2b4o2b2o2b2o3b
4o2bob2o$2bobobob4o4bobo6bo3bo3bo6b3o3bobo4bobo2b2o3b4o2bobo6bo2bo9bob
5o3b4ob2ob3ob2o7b2o5b2o2b5o2bob2ob2o6bo6b2o12b2o9bo3bo11bo3b4o6b2obobo
5bobo2b3o4bo9bo20b9o2bo2bobob2o$2b3ob4obo8bo4bo3bob3obo16b3ob2o2b2o4bo
2bo4bo3b2obo7b2o5b3ob4o6b2o3b3o3b2obo5b3ob3obobo9b2o7b2obo17b3o3bo7b2o
2bo2bo12bo2b2o7bob2ob8o9bo2bo10bob5o2b5ob2obo4bobob3o$9b2o8b4o7b3ob2o
11bo14bo2b2o2bo2bobobob2obo8bo3bo7b2obo3b2o7bo2bo7b3o6bo11b3o23bo4b2o
9b2o3bo2bo4bo8b3ob2ob2ob2o5bo11bo4bobo12b3o7bo2bo3bo4bo3b3o$9b2o7b2o4b
2o8bobo21b3obobo4b2o2b3ob2o2bo8bo2b2o5b4o5b3o7bo8bobo14b3o3b3o36bob3o
5bo2b3o9bo2b2o4b2o5bob6ob2obo5bo14bo6bobo4bo$10bo7b3o3b2obo5b2o2b2o8bo
8b2o2bob2ob2o3b2o2bobo3bo10bobo9b4obo3bo15bobo14b4o4b4o7bo11bo4b2o8bob
2o3bo3bo3bo3bob2ob2o6bobo4b2obo4bob2o11b5o15b3o2bo8b2o$8b3obobob3obo5b
2o6bo20bob2ob2ob4ob2obo3b2o3b2o3bobo14b2o2b2o4bo3b2o5bobo2bo8bo7b4o4b
3ob2o7b3o2bo9b4ob2obobo7bo3b3obob5ob2o6bo7b2o5bo2bo12b2obo8bo3b4o2bo
12b3o$6b2obo4bob2obob3o3bobo3b2o3bob2obo8bo2bob3o2bo3bob2o3b2o3b2obobo
bob2o18b2o5bobo7bo3b3o3bobo10b2o7bo2bo3bobo3b2obo7bo8bobo6bo4bo4b2obo
3bobo7bobo3bo5bo4b2ob2o8bobo8bo3b4o2bo10b5o$6bo5b2o3bo3bobo4bo4bo3bo4b
o14bo2b3o3b2o4bobo3b2o3b2o4bo19b2o2b2o2bo5bobo2b3obo11b4o8b3o2bo2bo3b
2o8b2o6b2o10bo8bob2o3b3o2b2o6b3obobo2b6o3b2ob3o2b3o10bob2o2bo15bo$6bo
5b2o2b3o3b2o4b2o3bob2o23b2obob4obob2o4bo3bob4obo12b4o5bobobobo7bo3bo2b
obo2bobo8b2obo6bo2bob5o11bo4b2obo4b2o4bo2bobo3bo2bob5o4b2o3b3o3bo5bobo
8bobob2obobo4b2obo2bo4bo13bo$6b2o4bo2bo4b2obo3b4o4b2o4bo3bo10bo4b3ob2o
6bo3bo4b2obo2b5o8bo4b2o2b2o3bob2o5b2o3b2o8bo2b2o6b3o8bobo14bo3b2o8b3o
3b2o7bo2b2o5b2o2b2obobo2b2o2b6o6b2obobob2obo6bo5bobo3bo7b3o2b5o$6b3o3b
o2bo3bob3o3b5obo5bobobo4bo3b3o6b6o8b2o4bob2o4bob4o5b2o4b2o2b4obobob2o
2b2obob3o8bo4bo3b2o7b3ob2obo4bob2ob2ob5o10b2o2bobobob3o9b2obob2obobobo
2bo14bob2ob2ob2ob2o5bo2bo4bo7b5ob2o3b3o$7b2obo9bo6bo3b3o8b4o3b7o6b3obo
19b4o2bo5b2o7b3obo7b2o2bo5bo8bo5bo2b5obobob4obobo6bob4o2bob2o13b2o9bob
3o2bo4b2ob2o2bo2b2o10b4o7bo2b2obo3bo2bo10b2o6bo2b2o$7bo4bo7bo7bob5obo
8bo4b3obo8b2ob2o3b2o6bobo4bo6b2o2bo7b2obo12b2o2bob4o4b7ob2obo8b2obo5bo
6bo7b2o10bo5b2obo4b3obob2obo6b2o5b2o9b2o6b5obo3bo3bo3b2obo7b2o3b4o$2b
3o2bo2bobo8bo7bob2o3bo8b3o3b2o2bo7bo2bo4b2o4b3o6bo6bo4b2o4bobobobo9b2o
11b2o8b5o3bo4bobo3bo3b2o3bo2b3o2bob2o3b2o8bo2bo5b2o2bob2o9b3o3b2obo2bo
5bo5bo3b4o4bob5o3bo7b3o2bob2o4b3o$b2obo2bo3bo8b2o7b3o3bo2bo16bo2b2o5bo
bo3bob2o2b3obo4bo6bob2o2bob4o9b2o4bobobo2b2o2bo2b7o2b2o11bobo7bob4obob
2o2b4o3b2o10b3o4b2o3bo2bo4bo2b4o5b2o2b2o5b2o3b2o2bo7b5obo10b2obo2bo7b
3o$bo2bo5bo9bo8b3o4bob2o6bo8bo3b2o3b2obo4b2o3bo7b5o3b5o4b2o4bo4b2ob2ob
ob4obo3bo7bob2o5bo3bo5bobo6bo6bo3bob7o2bo7bo10b2ob3obob2o3b2obo4b2o4bo
6bo3b2ob2o5b3ob2o15b2o2bo$4bobo8b2o6b5obobo5b2o9bo6bo3bob2ob2obo4bob2o
9b3obo6b2o16bob2obobobo2b2ob2o10bo5bo8bob2o6bo4b2o8b3o2b2o3bob2o4b3o7b
o2b4o2bobo3b2o4bo12bo8b5ob2o17bo2bo$5bo4bo4b3o5bobo2bo18bob2o5bob2ob3o
3bo4bo3bo9bob5o3bo6bo4bo4bo3b2ob5o2bo3bo13b2o3b2ob3o2b4o4bo3bo7b4o2b4o
3bob5ob4o5b2o6b2o2b2o2b2o3b2o3b2o8b2o6b3obob3o8bo8bobo6b2ob2o$10bo4b4o
2bob3o2bo9bo8bobo5b2o3b4o3bo4bo3b2o9bo2bobo3b2obob2o3b3o5bo3bo2b3o7bo
4b3o6b2o3b2o7bobo3b2o3bo8b2o3bo4bo2b4ob2o2b2o6bo4b2o7bo6bo3b2o6bo2bo3b
3o5bob2o17b3o4b3o2b2o$10bo4bo2bob2o2b2o12bo7b2obobo4bo6b3ob2o2b2o5b2o
7bobo3b3o5b3ob2o3b2obob3o3bo5b2o3bo3b3o5b2o2b2obo3bob2obo4bob2obo5b2o
3b3obo3bob4o8b2o3bo3b3o15bo5bo5bo2bo3b2o6bo4b2o4b2o8b4o4b2o$bo4bo8b2o
2b4obo3bo17b2ob3o3b3o4bobob3o2b2o7b2o5bob2o4bo3bo8b2obo4bo3bo6b2o4bo3b
o10b6obo3b2o7b2o7b4o3bo8b2o8b2o4b3o3bo13b5o11bo2bo8bo4b2o5b2o8b2ob3ob
2o$2ob2o2bo2bo4bo3b2obobo3b2o6b3o11b2o5bo3bo4b3o11b2o5bobo2bo4bobo5b2o
bo10b2o6bo6bo2bobo13bo10bo10b3obo9bobobo4b4o2bo3bo2bobob2o11b2o4b3o7b
2o2bo9b2ob2ob2ob2obobobobo6b2o5b2o$obob5obo5b2o3b2ob4obo6b3o10b3obo6b
2o7bo5b2ob4o5bobob2o4b3o6bo9b3o7b2ob5obo6bo8b3obo7bobo7bob3o8bo6bo4bo
2bo2b3o10b3obo4bo18bo2bo7bo2bob2obob4ob4o4b2o2b2o5b2o$obobob2o2bo5b2ob
4o3b4o3bo3bo10bo4bo7b2o2bo6b2obo8bob2obo2b2o3bob2o3bob2o4bob5o3b2o7b2o
4bo7b3obo2bo4bo3b2o3b2o3bo4bo2bob3o7bobob2o10bo7bo2bob3o4b2o6bo9bo2b2o
8bobobo5bo10b2ob3o$3obob3o2b2o2b2o4bob3ob4o3b3o8bob2ob2o2bo4b2o4bo4b2o
bo11b4o3b2ob2o2b2o13b2o2b2ob5o9bobo8bo10bo5bobo5bo10bo8bob3o7b4o8bob2o
4bo2bo2b2o2bo12bob2o6bo8b2obo9bo2bo$4b5o4b2ob5o8bob5obobo5bobo2b2o2bo
9bobo5b3o12bo4bob3o2b3obo7bobobob8o6bo5b2o2bo2bo10b3o5bobo5b3o10bo2bo
2b2o5bo6b6o4bobobob2o10b9o5bo3bo2b2o4b2obobob3o9bo2b2o4bo2b2o$9bo9b2o
8bobo5b3o6b5ob5o2bo4b4ob2o7bob3ob4o3b2o7b3o9b5obo5b3o9b3obob3o8bob3o
13b3obo8b3obob3o9b3o3b2o4bob3obo5bo8bo2b4o4bo2b2ob2o3b3obo17b3o8b2o$5b
5o5b2obo9b2obobo2b3o7bobob4obo4bo3b3ob2ob3o3b6ob2ob2obo11b2o5bo4b2o3b
2o3b2o4b2o3b3o2b4o4b2o2b3o6bobobobo6b3o2b2o4b4o2b3o3b2o4b2o3b2o4bo4bo
6bo8bobo5bo3bobobo9bo2bo17b3ob2o$3b2o5bobo2b2o2bo9bobo15b4obob3o3bo4b
2o3b2o5bobob10o5b3o4bo4b2o4b2o2b3o8b3o4bo6bo5bo3bo3bo13bo3bo3bo5bo6bo
4b3o8b3o2b2o4b2o4bo4b3o2b3o3b3o4b3ob2o7b5o11bo4bo3bo$3bo5b2ob3o3b2o7b
2o2bob2o7bo3b2obo3bo2bo4b2o4bob2ob4obob5o2b2ob2o5bobo4bo5bo5bob6o7bo5b
ob2ob3o2b2ob2o2b3o7bobo7b3o2b2ob2o2b3ob2obo5bo7b6obo5bo5bo4bobo5b4ob2o
4b2o2bo3b2ob2o2bobo10bo3bo2bo5b2o$b2o4b2o7b2o8b3o2bo8bo6b3o2b5o6b2ob2o
bo3bob3o2bobo7bob2o3b7o3b2o4bob2o2bob2o6b2o5b3o7b2obob3o21b3obob2o7b3o
5b2o6b2obo2b2obo4b2o3b7o3b2obo9b6o3bo4bob3o14bo2bo6bo$bo14bo8bo5b2obob
ob2ob2o6bo4bobo5b3o3bo5bo5b3o7bob2obobo3b2ob2ob2o4bob2o2b5o7bo2b2ob2o
7b4o29b4o7b2ob2o2bo7b5o2b2obo4b2ob2ob2o3bobob2obo2bo4bob2o6bo5b3o15bo
3b2o$2bo2b2o17bo6bo4bo2b2o3bob2obo2bobo5b3o5bo4b2o4bo10bo11bo10b3o5bo
9bo6bobo8bo7b3o9b3o7bo8bobo6bo9bo5b3o10bo11bo10bo6b2o6bob3o5bo4b2o3b2o
$2bobob4o5bo8bo5bo3bobo2bobo3b7o2bobo6b2o8b2o4bo2bo8bo5bo4bo10bobo5bo
7bo6b4o2b2o4bo7b3obo7bob3o7bo4b2o2b4o6bo7bo5bobo10bo4bo5bo8bo2bo6b2ob
2o4bo6bobob2o6b2o5bo$2bo2bobobo5b2o4bo2bo5bo8bo3bob4o6b2ob2o2b2o7bo6bo
12bo5bo4bo4b3o3bobo2b4o8bo11b2o4b3o3b2o4b2o5b2o4b2o3b3o4b2o11bo8b4o2bo
bo3b3o4bo4bo5bo12bo6bo6b3o2b2ob2o9bo6b2o$2bob2ob3o5bo3bob4o5b2ob3o6bo
4b2o2b3o9b2o4bobo5bo8bob3o4b2o5bo4bobo3b3o2bob3obo4b2o6bo9bob2obob2o4b
o2b3o2bo4b2obob2obo9bo6b2o4bob3obo2b3o3bobo4bo5b2o4b3obo8bo5bobo4b2o9b
3o2b2o5b2o$bobo12b2obo15bo6bo5bob5o6b3o6b2o5bo6bo2bo2bo3bo2bo4bo5bo9b
3o2b2o5b3o11b3o2b4o2bob3ob2obob2ob3obo2b4o2b3o11b3o5b2o2b3o9bo5bo4bo2b
o3bo2bo2bo6bo5b2o6b3o6b5ob2o6b2o$o2bo12bo2bo15bo6bo5bob2ob2o6bo2bo10b
3o3bo3b3ob2o3b2ob2o2b2o5bo16bo3b2obo3b3ob2o3bo8bo2bobob3ob3obobo2bo8bo
3b2ob3o3bob2o3bo16bo5b2o2b2ob2o3b2ob3o3bo3b3o10bo2bo6b2ob2obo5bobobob
2o$o2bo12bo2bo15bobo4bo4bo2b5o4b2o2bob2obob2o3bob2obobobo4bob3obob2ob
3o5bo17bobo4b3obobo2bobo8bobobobo9bobobobo8bobo2bobob3o4bobo17bo5b3ob
2obob3obo4bobobob2obo3b2obob2obo2b2o4b5o2bo2b3obobo2bo$o2bo12bo2bo15bo
10b2o3b3o5bob3o3b2ob2o3bob4ob3o4b3ob3o3b3o5bobo16b3o8b3o2b3o8b3ob3o9b
3ob3o8b3o2b3o8b3o16bobo5b3o3b3ob3o4b3ob4obo3b2ob2o3b3obo5b3o3b2o$4o12b
4o15bo4b4obo13b3o13b3o29b3o109b3o29b3o13b3o13bob4o$35bo3bo4b2o237b2o4b
o3bo$35b4o251b4o!
